!!!COM:	L van Beethoven
!!!OTL:	String Quartet No15 Op 132
**kern	**dynam
*I"Violin I	*
*clefG2	*
*k[]	*
*a:	*
*M2/2	*
=1	=1
!LO:TX:a:B:t=Assai sostenuto	!
1r	.
=2	=2
1r	.
=3	=3
(2d#	pp
2e	.
=4	=4
2cc	<
2b)	>
=5	=5
(2gg#	pp
2aa	.
=6	=6
2bb	.
2ccc)	.
=7	=7
(2ccc	<
2bb)	>
=8	=8
(2dd#	pp
!LO:TX:t=cresc.	!
4ee	<
4ff)	.
=9||	=9||
*M4/4	*
!LO:TX:a:B:t=Allegro	!
(16ffLL	f
16ee	.
16dd	.
16ff	.
16ddLL	.
16cc	.
16b	.
16dd	.
16bLL	.
16a	.
16g#	.
16b	.
16fLL	.
16e	.
16d	.
16f	.
=10	=10
!LO:TX:t=dim.	!
16dLL	>
16c	.
16B	.
16d	.
16BLL	.
16A	.
16G#	.
16B	.
16dLL	.
16g#	.
16b	.
16dd	.
8ffL	p
8ee)	.
=11	=11
[1ee	.
=12	=12
[2ee	.
(8eeL	.
8dd#)	.
12ddL	.
12cc	.
12b	.
=13	=13
(4b	.
8.aL	.
16b	.
4cc	.
8.bL	.
16a)	.
=14	=14
(4a	.
2g#	.
8.fL	.
16e)	.
=15	=15
(4e	.
8.fL	.
16e)	.
(4e	.
8.ddL	.
16b)	.
=16	=16
(4dd	<
2cc	.
8.ffL	>
16dd#)	]
=17	=17
(4ff	<
2ee	.
8.aaL	>
16ee)	]
=18	=18
!LO:TX:t=cresc.	!
(4gg	<
[4ff)	.
(8.ffL	.
16dd)	.
(8.ddL	.
16b-)	.
=19	=19
(8.b-L	f
16f)	.
(8.fL	.
16d)	.
(8.dL	.
16B-)	.
(8.B-L	.
16A)	.
=20	=20
4G#	.
4A	.
4a	.
(8aa	.
8bb)	.
=21	=21
!LO:TX:a:B:t=Adagio	!
(4ccc	fp
4ee	<
4aa	>
8ee	.
8cc)	]
=22	=22
!LO:TX:a:B:t=Allegro	!
(16bLL	p
16a	.
16g#	.
16b	.
16fLL	.
16e	.
16d	.
16f	.
16dLL	.
16c	.
16B	.
16d	.
16fLL	.
16g#	.
16b	.
16dd)	.
=23	=23
(1ff	.
=24	=24
1ee)	.
=25	=25
1r	.
=26	=26
1r	.
=27	=27
2r	.
4r	.
(8.aaL	<
16ee)	>
=28	=28
!LO:TX:t=cresc.	!
(4gg	<
4ff)	.
(8.bb-L	.
16ff)	.
(8.ffL	.
16dd)	.
=29	=29
(8.ddL	f
16b-)	.
(8.b-L	.
16f)	.
(8.fL	.
16d)	.
(8.dL	.
16B-)	.
=30	=30
1B-	f
=31	=31
(4B-	>
8.gL	.
16a-	.
4b-	.
8.gL	]
16f)	.
=32	=32
(4f	f
2e)	.
(4b-	.
=33	=33
4bb-	>
8.ggL	.
16aa-	.
4bb-	.
8.ggL	]
16ff)	.
=34	=34
(4ff	p
8.eeL	.
16b)	.
(4b	.
8.ccL	.
16b-)	.
=35	=35
(4b-	.
8.aL	.
16aa)	.
(4aa	.
8.ggL	.
16ff)	.
=36	=36
(12ffL	.
12ee	.
12ff	.
12ff#L	.
12gg	.
12b	.
12ddL	.
12cc	.
12b	.
12ccL	.
12dd	.
12b-)	.
=37	=37
(16b-LL	.
16a	.
16g#	.
16a	.
16b-LL	.
16b	.
16cc	.
16cc#	.
16ddLL	.
16dd#	.
16ee	.
16ff	.
16ggLL	.
16aa	.
16gg	.
16ff)	.
=38	=38
!LO:TX:t=cresc.	!
(16ffLL	<
16ee	.
16ff	.
16dd)	.
8ddL	.
8dd	.
(16ddLL	.
16cc#	.
16dd	.
16b-)	.
8bb-L	.
8bb-	.
=39||	=39||
*k[b-]	*
*F:	*
(16bb-LL	.
16aa	.
16bb-	.
16gg)	.
8ggL	.
8gg	.
(16ggLL	.
16ff#	.
16gg	.
16ee)	.
8eeL	[
8ddd	f
=40	=40
4ddd	.
8eee	.
16r	.
16e	p
4a	.
4a	.
=41	=41
(4.a	.
16g)	.
16f	.
8fL	.
8f	.
(16fLL	.
16g	.
8f)	.
=42	=42
(4f	.
8e)	.
16r	.
16ee	.
4aa	.
4aa	.
=43	=43
(4.aa	.
16gg	.
16ff#)	.
8ff#L	.
8ff#	.
(16ff#LL	.
16gg	.
8ff#)	.
=44	=44
!LO:TX:t=cresc.	!
(8.ffL	<
16dd#)	.
(8.eeL	.
16gg)	.
(8.ggL	.
16ff)	.
(8.ffL	.
16ff#)	.
=45	=45
(8.ff#L	.
16gg)	.
(8.ggL	.
16gg#)	.
(8.gg#L	.
16aa)	.
(8.aaL	.
16bb-)	.
=46	=46
(8.bb-L	.
16bb)	.
(8.bbL	.
16ccc)	.
(8.cccL	.
16ccc#)	.
(8.ccc#L	.
16ddd)	.
=47	=47
(8.dddL	.
16eee)	.
(8.eeeL	.
16fff)	[
(8.fffL	f
16ff)	.
(8.aaL	>
16gg)	]
=48	=48
1r	.
=49	=49
8r	.
(8gg	p
8aa	.
8bb-)	.
2r	.
=50	=50
8r	.
(8gg	.
8aa	.
8bb-)	.
4r	.
4aa	.
=51	=51
1r	.
=52	=52
8r	.
(8b	.
8cc	.
8ee	.
8ggL	.
8bb	.
8ccc	.
8ddd)	.
=53	=53
4..eee-	<
16ddd	[
!LO:TX:t=piu cresc	!
(4ccc#	.
4ccc#)	.
=54	=54
!LO:TX:t=dim.	!
(4eee-	.
8ddd	.
8ccc	.
4bb-	.
8ccc	.
8ddd)	.
=55	=55
!LO:TX:t=teneramente	!
(4.ccc	.
8aa)	.
(4.bb-	.
8ee)	.
=56	=56
8r	.
(16gg	.
16ff	.
16eeLL	.
16ff	.
16gg	.
16ff	.
16eeLL	.
16gg	.
16aa	.
16bb-	.
16cccLL	.
16ccc#	.
16ddd	.
16bb-)	.
=57	=57
!LO:TX:t=dolce	!
(4aa	.
4gg	.
4ff	.
4cc)	.
=58	=58
(8ffL	.
16gg	.
16ff	.
8eeL	.
16ff	.
16gg	.
8aaL	.
16bb-	.
16aa	.
8ggL	.
16aa	.
16bb-)	.
=59	=59
!LO:TX:t=cresc.	!
[4ccc	<
8ccc	.
(16ccc	.
16bb-	.
[4aa)	.
8aa	.
(16aa	.
16gg	.
=60	=60
[4ff)	.
8ff	.
(16ff	.
16ee	.
!LO:TX:t=non legato	!
8ddL)	.
16ddd	.
16ccc	.
16bb-LL	.
16aa	.
16gg	.
16ff	[
=61	=61
16eeLL	f
16ff	.
16gg	.
16aa	.
16bb-LL	.
16aa	.
16gg	.
16ff	.
16eeLL	.
16ff	.
16gg	.
16aa	.
16bb-LL	.
16ccc	.
16ddd	.
16eee	.
=62	=62
4fff	.
4r	.
16ggLL	ff
16aa	.
16bb	.
16ccc	.
16dddLL	.
16eee	.
16fff	.
16ggg	.
=63	=63
(16gggLL	p
!LO:TX:t=legato	!
16fff	.
16eee	.
16fff	.
16eeeLL	.
16fff	.
16eee	.
16ddd)	.
(16dddLL	.
16ccc	.
16bb	.
16ccc)	.
(16cccLL	.
16bb-	.
16aa	.
16gg)	.
=64	=64
(16ggLL	.
16ff	.
16ee	.
16ff	.
16eeLL	.
16ff	.
16ee	.
16dd)	.
(16ddLL	.
16cc	.
16b	.
16cc)	.
(16ccLL	.
16b-	.
16a	.
16g)	.
=65	=65
(4a	.
!LO:TX:t=cresc.	!
4b	<
4cc	.
4ee)	.
=66	=66
(16ggLL	.
16ff	.
16ee	.
16ff	.
16eeLL	.
16ff	.
16gg	.
16aa)	.
(16aaLL	.
16bb-	.
16ccc	.
16ccc#	.
16dddLL	.
16ccc#	.
16ddd	.
16ee)	[
=67	=67
(8.ffL	ff
16ee)	.
(8.dd-L	sf
16b-)	.
(8.gL	sf
16e)	.
(8.dd-L	sf
16cc)	.
=68	=68
(2dd	p
2cc)	.
=69	=69
(8.ccL	sf
16dd-)	.
(8.eeL	sf
16gg)	.
(8.bb-L	sf
16ddd-)	.
(8.eeeL	sf
16fff)	.
=70	=70
(2b	p
2cc)	.
=71	=71
!LO:TX:B:t=Rit.	!
[2dd	.
8ddL	.
(8e	.
8dd	.
8cc)	.
=72	=72
!LO:TX:t=cresc.	!
[2dd	.
8ddL	.
(8c	.
8b-	.
8g)	.
=73	=73
!LO:TX:a:B:t=A tempo	!
8aL	p
8r	.
8b-	.
8r	.
8ccL	.
8r	.
8gg	f
8r	.
=74	=74
4r	.
4aa	p
2r	.
=75	=75
1r	.
=76	=76
[1A	pp
=77	=77
[1A	.
=78	=78
[1A	.
=79	=79
4A	.
(8.f#L	.
16g	.
4a	.
8.gL	.
16f#)	.
=80	=80
(4a	.
[4g)	.
8gL	.
(8g	.
8f#	.
8g	.
=81	=81
4b-	.
8.aL	.
16b-	.
4cc	.
8.b-L	.
16a)	.
=82	=82
(4cc	.
2b-)	.
(8.ee-L	.
16dd)	.
=83	=83
(4dd	.
8.ee-L	.
16dd)	.
(4dd	.
8.cccL	.
16aa)	.
=84	=84
(4ccc	<
2bb	.
4ccc)	>
=85	=85
4ddd	]
(8.ddL	.
16ee-	.
4ff	.
8.ee-L	.
16dd)	.
=86	=86
(4ff	<
2ee-	.
4dd)	.
=87	=87
2cc	>
2f#	.
=88	=88
!LO:TX:t=cresc.	!
1g	<
=89	=89
1ee-	.
=90	=90
1eee-	.
=91	=91
4eee-	f
4ddd	.
4ddd	.
4ddd	.
=92||	=92||
*k[]	*
*C:	*
1r	.
=93	=93
1r	.
=94	=94
2r	.
8.r	.
(16dd	p
8.cc	.
16dd)	.
=95	=95
(8ffL	.
[4.ee)	.
8eeL	.
(8ff	.
8.ee	.
16ff)	.
=96	=96
(8aaL	.
[4.gg)	.
8ggL	.
(8aa	.
8.gg	.
16aa)	.
=97	=97
(8.aaL	>
16ee)	]
8eeL	p
8ff	.
(8.ggL	>
16dd)	]
8ddL	p
8ee	.
=98	=98
(8.ffL	>
16a)	]
8aL	p
8b	.
8ccL	pp
8dd	.
8ee	.
8ff	.
=99	=99
!LO:TX:t=cresc.	!
1ee	<
=100	=100
1eee	.
=101	=101
1ggg	.
=102	=102
4ggg	f
4fff#	.
4fff#	.
4fff#	.
=103	=103
1d#	ff
=104	=104
1e	f
=105	=105
1aa#	f
=106	=106
!LO:TX:t=f H	!
[1bb	>
=107	=107
8bbL	]
(8gg#	p
8aa	.
8bb	.
4ccc	.
8.bbL	.
16aa)	.
=108	=108
(4aa	.
2gg	.
8.ff#L	.
16ee)	.
=109	=109
(8eeL	.
8dd#	.
8.ee	.
16ff#	.
4gg	.
8.ff#L	.
16ee)	.
=110	=110
!LO:TX:t=cresc.	!
(4ee	.
2.dd#)	.
=111||	=111||
*k[f#]	*
*e:	*
1dd#	f
=112	=112
1ee	.
=113	=113
1ccc	.
=114	=114
(2bb	.
!LO:TX:t=dim.	!
[2bb)	.
=115	=115
[1bb	.
=116	=116
(2bb	.
[2bb)	pp
=117	=117
2.bb	.
4ccc	.
=118	=118
!LO:TX:t=cresc.	!
4ccc	.
4ccc	.
4ccc	.
4ccc	.
=119	=119
16cccLL	f
16bb	.
16aa	.
16ccc	.
16aaLL	.
16gg	.
16ff#	.
16aa	.
16ff#LL	.
16ee	.
16dd#	.
16ff#	.
16ccLL	.
16b	.
16a	.
16cc	.
=120	=120
!LO:TX:t=dim.	!
16aLL	.
16g	.
16f#	.
16a	.
16d#LL	.
16f#	.
16a	.
16cc	.
12dd#L	.
12ff#	.
12aa	.
8cccL	p
8bb	.
=121	=121
[1bb	.
=122	=122
[2bb	.
(8bbL	.
8aa#	.
12aaL)	.
12gg	.
12ff#	.
=123	=123
(8ff#L	.
8dd#	.
8ee	.
8ff#	.
4gg	.
8.ff#L	.
16ee)	.
=124	=124
(4ee	.
2dd#)	.
(16ddLL	.
16cc	.
8b)	.
=125	=125
(4b	.
8dd	.
16cc	.
16b)	.
(8ccL	.
8aa#	.
16bbLL	.
16aa	.
8ff#)	.
=126	=126
(4aa	.
2gg)	.
!LO:TX:t=espressivo	!
(8ddd	.
16ccc	.
16aa#	.
=127	=127
4ccc	.
[4bb)	.
8bbL	.
(8ddd	.
8fffL	.
16eee	.
16bb)	.
=128	=128
(4ddd	.
[4ccc)	.
!LO:TX:t=cresc.	!
(8.cccL	.
16aa)	.
(8.aaL	.
16ff#)	.
=129	=129
(8.ffL	f
16cc)	.
(8.ccL	.
16a)	.
(8.aL	.
16f)	.
(8.fL	.
16e)	.
=130	=130
4d#	.
4dd#	.
4ee	.
(8eee	.
8fff#)	.
=131	=131
!LO:TX:a:B:t=Adagio	!
(8gggL	p
8bb	.
8eee	.
8ggg	.
4.bbb)	.
8gg	.
=132	=132
4ff#	.
!LO:TX:a:B:t=Allegro	!
4r	.
2r	.
=133	=133
(2.ddd	<
4gg#)	>
=134	=134
4gg	p
(8.c#L	.
16d	.
4e	.
8.dL	.
16c#)	.
=135	=135
4c#	.
2.d	.
=136	=136
(4g	.
8.eL	.
16f	.
4g	.
8.fL	.
16e)	.
=137	=137
(4g	.
8.fL	.
16e	.
4d)	.
[4dd	.
=138||	=138||
*k[]	*
*C:	*
(8ddL	.
8cc#)	.
[4dd	.
(8ddL	.
8ee)	.
(8.b-L	.
16a)	.
=139	=139
(4a	.
8.b-L	.
16a)	.
(4a	.
8.ggL	.
16ee)	.
=140	=140
(4gg	.
2ff)	.
4ff	.
=141	=141
(4ff	f
8.ddL	.
16ee-	.
4ff	.
8.ddL	.
16cc)	.
=142	=142
(4cc	.
2b)	>
(8.eeL	.
16ff)	]
=143	=143
(4ff	f
8.ddL	.
16ee-	.
4ff	.
8.ddL	.
16cc)	.
=144	=144
(4cc	.
2b	>
8.eeL	.
16ff)	]
=145	=145
(8.ffL	p
16dd	.
4ff)	.
4r	.
4dd	.
=146	=146
4r	.
(8.eeL	.
16eee)	.
(4eee	.
8.dddL	.
16ccc)	.
=147	=147
(4ccc	.
4bb)	.
8r	.
(16ff#	.
16gg	.
16aaLL	.
16gg#	.
16aa	.
16ff)	.
=148	=148
(16ffLL	.
16dd#	.
16ee	.
16ff	.
16ff#LL	.
16gg	.
16gg#	.
16aa	.
16bb-LL	.
16bb	.
16ccc	.
16ccc#	.
16dddLL	.
16eee	.
16ddd	.
16ccc)	.
=149	=149
!LO:TX:t=cresc.	!
(16cccLL	<
16bb	.
16ccc	.
16a)	.
8aaL	.
8aa	.
(16aaLL	.
16gg#	.
16aa	.
16ff)	.
8ffL	.
8ff	.
=150	=150
(16ffLL	.
16ee	.
16ff	.
16dd)	.
8ddL	.
8dd	.
(16ddLL	.
16cc#	.
16dd	.
16b)	.
8bL	.
8aa	f
=151	=151
4aa	.
4bb	.
2r	.
=152	=152
4r	.
8.r	.
16cc	p
4ff	.
4ff	.
=153	=153
(4.ff	.
16ee	.
16dd)	.
8ddL	.
8dd	.
(16ddLL	.
16ee	.
8dd)	.
=154	=154
8ccL	.
8cc	.
(16ccLL	.
16b	.
8cc)	.
(8eeeL	.
16ddd	.
16ccc)	.
(16cccLL	.
16ddd	.
8ccc)	.
=155	=155
!LO:TX:t=cresc.	!
(8.ccL	<
16a#)	.
(8.bL	.
16dd)	.
(8.bL	.
16cc)	.
(8.ccL	.
16cc#)	.
=156	=156
(8.cc#L	.
16dd)	.
(8.ddL	.
16dd#)	.
(8.dd#L	.
16ee)	.
(8.eeL	.
16ff)	.
=157	=157
(8.ffL	.
16ff#)	.
(8.ff#L	.
16gg)	.
(8.ggL	.
16gg#)	.
(8.gg#L	.
16aa)	.
=158	=158
(8.aaL	.
16bb)	.
(8.bbL	.
16ccc)	[
(8.cccL	f
16cc)	.
(8.eeL	>
16dd)	]
=159	=159
1r	.
=160	=160
2r	.
8r	.
(8dd	p
8ee	.
8ff)	.
=161	=161
(4ff	.
8ee	.
8dd	.
4cc	.
8dd	.
8ee)	.
=162	=162
(4.dd	.
8b)	.
(4.cc	.
8f#)	.
=163	=163
8r	.
(8g	.
8b	.
8dd	.
8ggL)	.
(8gg	.
8aa	.
8bb-)	.
=164	=164
(4..bb-	<
16aa)	[
!LO:TX:t=piu cresc.	!
(4gg#	.
4gg#)	.
=165	=165
!LO:TX:t=dim.	!
(4bb-	.
8aa	.
8gg	.
4ff	.
8gg	.
8aa)	.
=166	=166
!LO:TX:t=p teneramente	!
(4.gg	.
8ee)	.
(4.ff	.
8b)	.
=167	=167
(16eeLL	.
16b	.
16cc	.
16dd	.
16eeLL	.
16ff	.
16ff#	.
16gg	.
16aaLL	.
16gg	.
16ff#	.
16gg	.
16aaLL	.
16gg	.
16aa	.
16ff)	.
=168	=168
(4ee	.
4dd	.
4cc	.
4g)	.
=169	=169
(8ccL	.
16dd	.
16cc	.
8bL	.
16cc	.
16dd	.
8eeL	.
16ff	.
16ee	.
8ddL	.
16ee	.
16ff)	.
=170	=170
!LO:TX:t=cresc.	!
[4gg	<
8gg	.
(16gg	.
16ff	.
[4ee)	.
8ee	.
(16eee	.
16ddd	.
=171	=171
[4ccc)	.
8ccc	.
(16ccc	.
16bb	.
16aaLL	.
16bb	.
16aa	.
16gg	.
16ffLL	.
16ee	.
16ff	.
16dd)	[
=172	=172
!LO:TX:t=teneramente	!
!LO:TX:t=p	!
[1gg	.
=173	=173
!LO:TX:t=dolce	!
4gg	.
(8gg	.
16aa	.
16bb	.
4ccc	.
8bb	.
16ccc	.
16ddd)	.
=174	=174
!LO:TX:t=cresc.	!
[4eee	<
8eee	.
(16eee	.
16ddd	.
[4ccc)	.
8ccc	.
(16ccc	.
16bb	.
=175	=175
8aaL)	.
[8cc)	.
16ccLL	.
(16c	.
16cc	.
16b)	.
!LO:TX:t=non legato	!
16aLL	.
16b	.
16a	.
16g	.
16fLL	.
16e	.
16d	.
16c	.
=176	=176
16BLL	f
16c	.
16d	.
16e	.
16fLL	.
16e	.
16d	.
16c	.
16BLL	.
16c	.
16d	.
16e	.
16fLL	.
16g	.
16a	.
16b	.
=177	=177
4cc	.
4r	.
16ddLL	ff
16ee	.
16ff#	.
16gg	.
16aaLL	.
16bb	.
16ccc	.
16ddd	.
=178	=178
(16dddLL	p
16ccc	.
16bb	.
16ccc	.
16bbLL	.
16ccc	.
16bb	.
16aa)	.
(16aaLL	.
16gg	.
16ff#	.
16gg)	.
(16ggLL	.
16ff	.
16ee	.
16dd)	.
=179	=179
(16ddLL	.
16cc	.
16b	.
16cc	.
16bLL	.
16cc	.
16b	.
16a)	.
(16aLL	.
16g	.
16f#	.
16g)	.
(16gLL	.
16f	.
16e	.
16d)	.
=180	=180
4c	.
!LO:TX:t=cresc.	!
(4ff#	<
4gg	.
4bb)	.
=181	=181
(16bbLL	.
16ccc	.
16ddd	.
16eee)	.
(16eeLL	.
16ff	.
16gg	.
16aa)	.
(16ggLL	.
16aa	.
16bb	.
16ccc	.
16dddLL	.
16eee	.
16fff	.
16bb)	[
=182	=182
(8.cccL	f
16bb)	.
(8.aa-L	.
16ff)	.
(8.ddL	.
16b)	.
(8.aa-L	.
16gg)	.
=183	=183
(2a	p
2g)	.
=184	=184
(8.gL	f
16a-)	.
(8.bL	.
16dd)	.
(8.ffL	.
16ddd)	.
(8.bbL	.
16ccc)	.
=185	=185
(2ff#	p
2gg)	.
=186	=186
!LO:TX:B:t=Rit.	!
[2aa	.
(8aaL	.
8b	.
8aa	.
8gg)	.
=187	=187
!LO:TX:t=cresc.	!
[2aa	.
8aaL	.
(8G	.
8f	.
8d)	.
=188	=188
!LO:TX:a:B:t=a tempo	!
8eL	p
8r	.
8f#	.
8r	.
8gL	.
8r	.
8b	f
8r	.
=189	=189
4r	.
4b	p
2r	.
=190	=190
4r	.
8b	.
8r	.
8ccL	.
8r	.
8cc#	f
8r	.
=191	=191
4r	.
4cc#	p
2r	.
=192	=192
!LO:TX:t=cresc.	!
8cc#L	<
8r	.
8dd	.
8r	.
8dd#L	.
8r	.
8ee	.
8r	.
=193	=193
(1ff	p
=194	=194
1ee)	.
=195	=195
(1d#	p
=196	=196
1e)	.
=197	=197
1r	.
=198	=198
1r	.
=199	=199
(1dd#	.
=200	=200
1ee)	.
=201	=201
(4ddd	.
8.bbL	.
16ccc	.
4ddd	.
8.cccL	.
16bb)	.
=202	=202
!LO:TX:t=cresc.	!
(4ddd	<
2ccc	.
8.dddL	.
16eee)	[
=203	=203
1fff	f
=204	=204
1eee	.
=205	=205
1gg#	.
=206	=206
[1aa	>
=207	=207
4aa	]
(8.bb-L	p
16gg#	.
4bb-	.
8.aaL	.
16ee)	.
=208	=208
(4gg	.
2ff)	.
!LO:TX:t=espressivo	!
(8.bb-L	.
16ff)	.
=209	=209
(4aa	.
2gg)	.
(8.cccL	.
16gg)	.
=210	=210
!LO:TX:t=cresc.	!
(4..bb-	<
16aa)	.
(4..bb	.
16aa)	.
=211	=211
(4..bb	.
16aa)	.
(4..bb	.
16aa)	.
=212	=212
(16bbLL	sf
16aa	.
16bb	.
16aa	.
16bbLL	.
16aa	.
16bb)	.
16aa	.
(16bbLL	.
16aa	.
16bb	.
16aa	.
16bbLL	.
16aa	.
16bb	.
16aa)	[
=213	=213
(16bbLL	f
16aa	.
16bb	.
16aa	.
16bbLL	.
16aa	.
16bb	.
16aa)	.
(16bbLL	.
16aa	.
16bb	.
16aa	.
16bbLL	.
16aa	.
16bb	.
16aa)	.
=214	=214
4bb	.
4r	.
2r	.
=215	=215
1r	.
=216	=216
4r	.
8.r	.
16bb	p
4eee	.
4eee	.
=217	=217
(4.eee	.
16ddd	.
16ccc)	.
8cccL	.
8ccc	.
(16cccLL	.
16ddd	.
8ccc)	.
=218	=218
(8cccL	.
8bb)	.
4r	.
4r	.
(16cccLL	.
16ddd	.
8ccc)	.
=219	=219
!LO:TX:t=cresc.	!
(8.cccL	<
16bb)	.
8bbL	.
8ccc	.
(8.cccL	.
16bb)	.
8bbL	.
8ccc	.
=220	=220
(8.ccc#L	.
16ddd)	.
8dddL	.
8ccc#	.
(8.ccc#L	.
16ddd)	.
8dddL	.
8ddd#	.
=221	=221
(8.ddd#L	.
16eee)	.
(8.eeeL	.
16fff)	.
(8.fffL	.
16fff#)	.
(8.fff#L	.
16ggg)	.
=222	=222
(8.gggL	.
16ggg#)	.
(8.ggg#L	.
16aaa)	[
(8.aaaL	f
16aa)	.
(8.cccL	>
16bb)	]
=223	=223
4r	.
12r	.
!LO:TX:t=p  non legato	!
12f#	.
12e	.
12aL	.
12b	.
12a	.
4cc#	.
=224	=224
2r	.
8r	.
(8B	.
8c#	.
8d)	.
=225	=225
(4d	.
8c#	.
8B	.
4A	.
8B	.
8c#)	.
=226	=226
(4.B	.
8gg#)	.
(4.aa	.
8dd#)	.
=227	=227
8r	.
(8e	.
8g#	.
8b	.
8dd#L	.
8ee)	.
(8ee	.
8ff#)	.
=228	=228
(4..gg	<
16ff#)	[
!LO:TX:t=piu cresc.	!
(4ee#	.
4ee#)	.
=229	=229
!LO:TX:t=dim.	!
(4gg	.
8ff#	.
8ee	.
4dd	.
8ee	.
8ff#)	.
=230	=230
!LO:TX:t=teneramente	!
(4.ee	.
8cc#)	.
(4.dd	.
8g#)	.
=231	=231
(4.ee	.
8cc)	.
(4dd	.
8ddd	.
8gg#)	.
=232	=232
(4bb	pp
8.aaL	.
16bb	.
4ccc	.
8.bbL	.
16aa)	.
=233	=233
(4aa	.
2gg#	.
8.ffL	.
16ee)	.
=234	=234
(4ee	.
8.bbL	.
16ccc	.
4ddd	.
8.cccL	.
16bb)	.
=235	=235
!LO:TX:t=cresc.	!
(4ddd	<
8.cccL	.
16ddd	.
4eee	.
8.dddL	.
16ccc)	[
=236	=236
(8.bbL	f
16gg#)	.
(16aaLL	.
16bb	.
16aa	.
16bb)	.
8cccL	.
8ccc	.
(16bbLL	.
16aa	.
16bb	.
16aa)	.
=237	=237
(4aa	.
2gg#)	.
(16ffLL	.
16dd#	.
16ff	.
16ee)	.
=238	=238
8eeL	.
8ee	.
(16ffLL	.
16dd#	.
16ff	.
16ee)	.
8eeL	.
8ee	.
(16dddLL	.
16ee	.
16ddd	.
16bb)	.
=239	=239
(4ddd	sf
2ccc)	.
(16dddLL	.
16ee	.
16ddd	.
16bb)	.
=240	=240
(4ddd	sf
[4ccc)	.
(8cccL	.
8ee)	.
(16eeeLL	.
16ddd#	.
16ddd	.
16bb)	.
=241	=241
4..ddd	sf
16ccc	.
4..bb	sf
16aa	.
=242	=242
4..ccc	sf
16bb	.
(4..aa	sf
16gg#)	.
=243	=243
(4..gg	p
16ee)	.
!LO:TX:t=cresc.	!
(4..ff	<
16dd)	.
=244	=244
(4..cc	.
16ee)	.
(4..b	.
16ee)	.
=245	=245
(4..b-	f
16gg)	.
!LO:TX:t=oiu f	!
(4..d	.
16ff)	.
=246	=246
(4..cc	.
16eee)	.
(4..ggg	.
16fff)	.
=247	=247
1fff	ff
=248	=248
[1eee	>
=249	=249
8eeeL	]
(8gg#	p
8aa	.
8bb	.
12dddL	.
12ccc	.
12bb	.
12bbL	.
12ccc	.
12aa)	.
=250	=250
(4aa	.
2gg#	.
[4gg)	.
=251	=251
!LO:TX:t=morendo	!
(4gg	.
2ff#	.
[4ff)	.
=252	=252
(8ffL	pp
[4.ee)	.
!LO:TX:t=sempre pp	!
(8eeL	.
[4.dd)	.
=253	=253
(8ddL	.
[4.cc)	.
(8cc	.
4.b)	.
=254	=254
1G#	.
=255	=255
!LO:TX:t=sempre pp	!
1bb	.
=256	=256
1ddd	.
=257	=257
!LO:TX:t=cresc.	!
(16ffLL	<
16ee	.
16ff	.
16ee	.
16ffLL	.
16ee	.
16ff	.
16ee	.
16ffLL	.
16ee	.
16ff	.
16ee	.
16ffLL	.
16ee	.
16ff	.
16ee)	[
=258	=258
(16bLL	f
16a	.
16cc	.
16a)	.
(16b-LL	.
16a	.
16cc#	.
16a)	.
(16b-LL	.
16a	.
16dd	.
16a)	.
(16bLL	.
16a	.
16dd	.
16a)	.
=259	=259
(16bLL	.
16a	.
16ee	.
16a)	.
(16bLL	.
16a	.
16aa	.
16a)	.
(16ddLL	.
16cc	.
16aa	.
16cc)	.
(16ccLL	.
16b	.
16gg#	.
16b)	.
=260	=260
(16B-LL	.
16A	.
16c#	.
16A)	.
(16B-LL	.
16A	.
16c#	.
16A)	.
(16B-LL	.
16A	.
16d	.
16A)	.
(16BLL	.
16A	.
16d	.
16A)	.
=261	=261
(16BLL	.
16A	.
16a	.
16A)	.
(16BLL	.
16A	.
16a	.
16A)	.
(16dLL	.
16c	.
16cc	.
16c)	.
(16fLL	.
16e	.
16ee	.
16e)	.
=262	=262
16eeJJ	.
16eeJJ	.
16eeJJ	.
16eeJJ	.
16eeJJ	.
16eeJJ	.
16eeJJ	.
16eeJJ	.
16eeJJ	.
16eeJJ	.
16eeJJ	.
16eeJJ	.
16eeJJ	.
16eeJJ	.
(16gg#LL	.
16ee)	.
=263	=263
16eeJJ	.
16eeJJ	.
16eeJJ	.
16eeJJ	.
16eeJJ	.
16eeJJ	.
(16aaLL	.
16ee)	.
16eeJJ	.
16eeJJ	.
16eeJJ	.
16eeJJ	.
16eeJJ	.
16eeJJ	.
(16eeeLL	.
16gg#)	.
=264	=264
4e 4cc 4aa	.
4r	.
2r	.
=265!|:	=265!|:
*k[f#c#g#]	*
*A:	*
*M3/4	*
!LO:TX:a:B:t=Allegro ma non tanto	!
(4G#	p
4A	.
4c#)	.
=266	=266
(4c#	.
4d	.
4f#)	.
=267	=267
(4A#	.
4c#	.
4d#)	.
=268	=268
(4d#	.
4e	.
4g#)	.
=269	=269
(2cc#	.
8bL	.
8a)	.
=270	=270
(8g#L	.
8e#)	.
4f#	.
4r	.
=271	=271
2.r	.
=272	=272
2.r	.
=273	=273
(2ee	p
8ddL	.
8cc#)	.
=274	=274
(8bL	.
8g#)	.
4a	.
4r	.
=275	=275
(8cc#L	pp
8a#)	.
4b	.
4r	.
=276	=276
(8aL	.
8f#)	.
4g#	.
4r	.
=277	=277
2.r	.
=278	=278
2.r	.
=279	=279
(2aa	<
8gg#L	[
8ff#)	>
=280	=280
(8eeL	]
8cc#)	.
4dd#	.
4r	.
=281	=281
(2gg#	<
8ff#L	[
8ee)	>
=282	=282
!LO:TX:t=cresc.	!
(8dd#L	<
8b#)	.
4cc#	.
(8ccc#L	.
8bb)	.
=283	=283
(8bbL	.
8gg#)	.
4aa	.
(8bbL	.
8aa)	.
=284	=284
(8aaL	.
8ff#)	.
4gg#	.
(8aaL	.
8gg#)	.
=285	=285
(8gg#L	.
8ee#)	.
4ff#	.
(8gg#L	f
8ff#)	.
=286	=286
(8ff#L	.
8dd#)	.
4ee	.
4r	.
=287:|!	=287:|!
(8ff#L	.
8dd#)	.
4ee	.
(4g	p
=288	=288
4f#	.
4g	.
4b)	.
=289	=289
(4b	.
4cc	.
4ee)	.
=290!|:	=290!|:
(4ff#	.
4gg	.
4bb)	.
=291	=291
(4bb	.
4ccc	.
4eee)	.
=292||	=292||
*k[]	*
*C:	*
(2aa	<
8ggL	[
8ff)	>
=293	=293
(8ffL	]
8dd)	.
4ee	.
4r	.
=294	=294
(2aa	<
8ggL	[
8ff)	>
=295	=295
(8ffL	]
8dd)	.
4ee	.
4r	.
=296	=296
4r	.
!LO:TX:t=cresc.	!
(4gg	.
8aaL	.
8bb-)	.
=297	=297
(4ccc	f
4ff	.
4aa)	.
=298	=298
(4aa	.
4bb-	.
4ddd)	.
=299	=299
2.r	.
=300	=300
2.r	.
=301	=301
(2ccc	p
8bb-L	.
8aa)	.
=302	=302
!LO:TX:t=cresc.	!
(8ggL	<
8ee)	.
4ff	.
4r	.
=303	=303
(8aaL	.
8ff)	.
4gg	.
4r	.
=304	=304
(8bb-L	f
8gg)	.
4aa	.
4aa	.
=305	=305
(4aa	.
4bb-)	.
4gg	.
=306	=306
(8cccL	pp
8dd)	.
4bb-	.
(8bb-L	.
8cc)	.
=307	=307
4aa	.
(8aaL	.
8b-)	.
4gg	.
=308	=308
(8ggL	.
8a)	.
4ff	.
(8ffL	.
8g)	.
=309	=309
4ee	.
(8eeL	.
8f)	.
4dd	.
=310	=310
2.r	.
=311	=311
2.r	.
=312	=312
!LO:TX:t=cresc.	!
(2dd	<
8ccL	.
8b)	.
=313	=313
(2ee	.
8ddL	.
8cc)	.
=314	=314
(8aaL	.
8ff#)	.
4gg	.
4r	.
=315	=315
(8aaL	.
8ff#)	.
4gg	.
4r	.
=316	=316
(2e	p
8dL	.
8c)	.
=317	=317
(8BL	.
8G#)	.
4A	.
4r	.
=318	=318
(2a	.
8gL	.
8f)	.
=319	=319
(8fL	.
8d)	.
4e	.
(8aL	.
8g)	.
=320	=320
(8fL	.
8d)	.
4e	.
!LO:TX:t=cresc.	!
(8aaL	<
8gg)	.
=321	=321
(8ffL	.
8dd)	.
4ee	.
(8eeL	.
8dd)	.
=322	=322
(8ddL	.
8b)	.
4cc	.
(8cccL	.
8bb)	.
=323	=323
(8dddL	.
8bb)	.
4ccc	.
(8cccL	.
8bb)	.
=324	=324
(8bbL	.
8gg#)	.
4aa	.
(8cccL	f
8bb)	.
=325	=325
(8bbL	.
8gg#)	.
4aa	.
4r	.
=326	=326
4r	.
4r	.
(8aaL	f
8gg#)	.
=327	=327
(8ggL	.
8ee)	.
4ff	.
(4aa	p
=328	=328
4ccc#	.
4ddd)	.
4r	.
=329	=329
4r	.
4r	.
(8dddL	p
8ccc#)	.
=330	=330
(8cccL	.
8aa)	.
4bb	.
4r	.
=331	=331
4r	.
4r	.
(8cccL	p
8bb)	.
=332	=332
(8bbL	.
8gg#)	.
4aa	.
4r	.
=333	=333
4r	.
4r	.
(8ccc#L	pp
8bb)	.
=334	=334
(8bbL	<
8gg#)	.
4aa	.
8ff#L	.
8dd#	.
=335	=335
4ee	.
8ddL	.
8b	.
4cc#	[
=336||	=336||
*k[f#c#g#]	*
*A:	*
(2cc#	p
8bL	[
8a)	.
=337	=337
(8g#L	>
8e#)	.
4f#	]
4r	.
=338	=338
(2dd	<
8cc#L	[
8b)	.
=339	=339
(8aL	>
8f#)	.
4g#	]
4r	.
=340	=340
(2ee	<
8ddL	[
8cc#)	>
=341	=341
(8bL	pp
8g#)	.
4a	.
4r	.
=342	=342
(8cc#L	.
8a#)	.
4b	.
4r	.
=343	=343
(8aL	.
8f#)	.
4g#	.
4r	.
=344	=344
(2aa	<
8gg#L	[
8ff#)	>
=345	=345
(8eeL	pp
8cc#)	.
4dd	.
4r	.
=346	=346
(8ff#L	.
8dd#)	.
4ee	.
4r	.
=347	=347
(8ddL	.
8b)	.
4cc#	.
4r	.
=348	=348
2.r	.
=349	=349
4r	.
!LO:TX:t=cresc.	!
(8gg#L	<
8ee#)	.
4ff#	.
=350	=350
4r	.
(8ff#L	.
8dd#)	.
4ee	.
=351	=351
4r	.
(8ff#L	.
8dd	.
8ee	.
8ccc#)	.
=352	=352
(2ccc#	p
8bbL	[
8aa)	>
=353	=353
(2aa	<
8gg#L	[
8ff#)	>
=354	=354
(2ddd	<
8ccc#L	[
8bb)	>
=355	=355
(2bb	<
8aaL	[
8gg#)	>
=356	=356
!LO:TX:t=cresc.	!
(2eee	<
8dddL	.
8ccc#)	.
=357	=357
(8bbL	.
8gg#)	.
4aa	.
(8aaL	.
8gg)	.
=358	=358
(8ggL	.
8ee#)	.
4ff#	.
(8ff#L	.
8ee)	.
=359	=359
(8eeL	.
8cc#)	.
4dd	.
(8eeeL	.
8ddd)	.
=360	=360
(8dddL	.
8bb)	.
4aa	[
(8dddL	p
8ccc#)	.
=361	=361
(8ccc#L	.
8aa#)	.
4bb	.
!LO:TX:t=cresc.	!
(8ccc#L	<
8bb)	.
=362	=362
(8bbL	.
8gg#)	.
4aa	.
(8dddL	.
8ccc#)	.
=363	=363
(8ccc#L	.
8aa#)	.
4bb	.
(8ccc#L	f
8bb)	.
=364	=364
(8bbL	.
8gg#)	.
4aa	.
(4a	p
=365	=365
4g#	.
4a	.
4cc)	.
=366	=366
(4b	.
4cc	.
4ee)	.
=367	=367
(4f#	.
4g	.
4cc)	.
=368	=368
(4b	.
4cc	.
4ee)	.
=369:|!	=369:|!
(8bbL	.
8gg#)	.
4aa	.
(8ff#L	pp
8ee)	.
=370	=370
(8eeL	.
8cc#)	.
4dd#	.
4r	.
=371	=371
4r	.
4r	.
(8gg#L	.
8ff#)	.
=372	=372
(8ff#L	.
8dd#)	.
4ee	.
4r	.
=373	=373
4r	.
4r	.
!LO:TX:t=sempre	!
(8f#L	.
8g#)	.
=374	=374
(8g#L	pp
8b)	.
4a	.
(8ccc#L	.
8bb)	.
=375	=375
(8bbL	.
8gg#)	.
4aa	.
(8g#L	.
8a)	.
=376	=376
(8aL	.
8cc#)	.
4b	.
(8dddL	.
8ccc#)	.
=377	=377
(8ccc#L	.
8aa#)	.
4bb	.
!LO:TX:t=cresc.	!
(8eeeL	<
8ddd)	.
=378	=378
(8ccc#L	.
8bb)	.
(8aaL	.
8gg#)	.
(4g#	.
=379	=379
4b	.
4dd	.
4ff#)	[
=380	=380
2.r	.
=381	=381
(2ee	p
8ddL	.
8cc#)	.
=382	=382
(8cc#L	.
8a)	.
4b	.
4r	.
=383	=383
(2ee	<
8ddL	[
8cc#)	>
=384	=384
!LO:TX:t=cresc.	!
(8cc#L	<
8a)	.
4b	.
4r	.
=385	=385
(8ddL	.
8b)	.
4cc#	.
4r	.
=386	=386
(8aaL	.
8ff#)	.
4gg#	.
4r	[
=387	=387
(2eee	f
8dddL	.
8ccc#)	.
=388	=388
(8bbL	.
8gg#)	.
4aa	.
4r	.
=389	=389
(8bL	p
8g#)	.
!LO:TX:t=Fine	!
4a	.
==	==
[4ccc#	p
=390	=390
*^	*
4r	2.a	p
4r	.	.
[4eee	.	.
=391	=391	=391
4r	2.a	.
4r	.	.
[4fff#	.	.
=392	=392	=392
4r	[2.a	.
4r	.	.
(4eee	.	.
=393	=393	=393
4fff#	[2.a	.
4eee	.	.
4ddd	.	.
=394	=394	=394
2eee)	[2.a	.
(4ccc#	.	.
=395	=395	=395
4ddd	[2.a	.
4ccc#	.	.
4ddd	.	.
=396	=396	=396
8ccc#L	[2.a	.
8ddd	.	.
4eee)	.	.
(4eee	.	.
=397	=397	=397
4fff#	[2.a	.
4eee	.	.
4ddd	.	.
=398	=398	=398
2eee	[2.a	.
4ccc#)	.	.
=399	=399	=399
(4ddd	[2.a	.
4ccc#	.	.
8bbL	.	.
8ddd)	.	.
=400	=400	=400
2ccc#	2.a	.
[4ccc#	.	.
=401	=401	=401
4r	2.a	.
4r	.	.
[4eee	.	.
=402	=402	=402
4r	2.a	.
4r	.	.
[4aaa	.	.
=403	=403	=403
4r	[2.a	.
4r	.	.
(4eee	.	.
=404	=404	=404
4fff#	[2.a	.
4eee	.	.
4ddd	.	.
=405	=405	=405
2eee)	[2.a	.
(4ccc#	.	.
=406	=406	=406
4ddd	[2.a	.
4ccc#	.	.
4ddd	.	.
=407	=407	=407
8ccc#L	[2.a	.
8ddd	.	.
4eee)	.	.
(4eee	.	.
=408	=408	=408
4fff#	[2.a	.
4eee	.	.
4ddd	.	.
=409	=409	=409
2eee	[2.a	.
4ccc#	.	.
=410	=410	=410
4ddd	[2.a	.
4ccc#	.	.
8dddL	.	.
8fff#	.	.
=411	=411	=411
2ccc#)	2a	.
*v	*v	*
4r	.
=412	=412
4r	.
4r	.
(8ff#L	.
8ee#	.
=413	=413
8ff#L	.
8gg#	.
8aa	.
8ff#)	.
4r	.
=414	=414
4r	.
4r	.
(8eeL	.
8dd#	.
=415	=415
8eeL	.
8ff#	.
8gg#	.
8ee)	.
(8aaL	.
8gg#	.
=416	=416
8aaL	.
8gg#	.
8aa	.
8bb	.
8ccc#	.
8ddd#	.
=417	=417
8eeeL	.
8ddd#	.
8eee	.
8bb	.
8ccc#	.
8aa	.
=418	=418
8gg#L	.
8ff##	.
8gg#	.
8bb	.
8aa	.
8ff#)	.
=419	=419
(8eeL	.
8gg#	.
8aa	.
8bb)	.
4c# 4g#	.
=420	=420
4c# 4g#	.
4c# 4g#	.
4c# 4f#	.
=421	=421
4c# 4f#	.
4c# 4f#	.
4B 4f#	.
=422	=422
4B 4f#	.
4B 4f#	.
4B	.
=423	=423
4B	.
4b	.
!LO:TX:t=cresc.	!
(8ff#L	<
8ee#	.
=424	=424
8ff#L	.
8ee	.
8dd	.
8cc#)	.
4r	.
=425	=425
4r	.
4r	.
(8eeL	.
8dd#	.
=426	=426
8eeL	.
8dd	.
8cc#	.
8b)	.
4r	.
=427	=427
4r	.
4r	[
4b 4bb	p
=428	=428
4b 4bb	.
4b 4bb	.
4b 4bb	.
=429	=429
4b 4bb	.
4b 4bb	.
4b 4bb	.
=430	=430
4b 4bb	.
4b 4bb	.
4b 4bb	.
=431	=431
4b 4bb	.
4b 4bb	.
4b 4bb	.
=432	=432
4b 4bb	.
4b 4bb	.
4b 4bb	.
=433	=433
4b 4bb	.
4b 4bb	.
4b 4bb	.
=434	=434
4b 4bb	.
4b 4bb	.
4b 4bb	.
=435	=435
4b 4bb	.
4b 4bb	.
4gg#	.
=436	=436
4gg#	.
4gg#	.
4ccc#	.
=437	=437
4ccc#	.
4ccc#	.
4ff#	.
=438	=438
4ff#	.
4ff#	.
4bb	.
=439	=439
4bb	.
4bb	.
4b 4bb	.
=440	=440
4b 4bb	.
4b 4bb	.
4b 4bb	.
=441	=441
4b 4bb	.
4ee	.
4ee	.
=442	=442
4ee	.
4ee	.
4dd#	.
=443	=443
4ee	.
!LO:TX:t=poco cresc.	!
(8eeL	<
8ee#	.
8ff#	.
8ee#	.
=444	=444
8ff#L	.
8ee	.
8dd	.
8cc#)	.
(8bL	.
8a#	.
=445	=445
8bL	.
8cc#	.
8dd	.
8b)	.
(8eeL	.
8dd#	.
=446	=446
8eeL	.
8dd	.
8cc#	.
8b)	[
(8aL	p
8g#	.
=447	=447
8aL	.
8b	.
8cc#	.
8b)	.
(8aL	.
8cc#	.
=448	=448
8eeL	.
8aa	.
8ccc#	.
8eee)	.
(8dddL	.
8bb	.
=449	=449
8gg#L	.
8ee	.
8dd	.
8b)	.
(8cc#L	.
8ee	.
=450	=450
8ddL	.
8cc#	.
8b	.
8a)	.
(8cc#L	.
8b	.
=451	=451
8aL	.
8g#	.
8f#	.
8e)	.
(8aL	.
8cc#	.
=452	=452
8eeL	.
8aa	.
8ccc#	.
8eee)	.
(8dddL	.
8bb	.
=453	=453
8gg#L	.
8ee	.
8dd	.
8b)	.
(8cc#L	.
8ee	.
=454	=454
8ddL	.
8cc#	.
8b	.
8a)	.
(8cc#L	.
8b	.
=455	=455
8aL	.
8g#	.
8f#	.
8e)	.
4r	.
=456	=456
4r	.
4r	.
(8bbL	.
8aa#	.
=457	=457
8bbL	.
8ccc#	.
8ddd	.
8bb)	.
4r	.
=458	=458
4r	.
4r	.
(8aaL	.
8gg#	.
=459	=459
8aaL	.
8bb	.
8ccc#	.
8aa)	.
(8ddL	.
8cc#	.
=460	=460
!LO:TX:t=cresc.	!
8ddL	.
8ee	.
8ff#	.
8gg#	.
8aa	.
8gg#	.
=461	=461
8aaL	p
8gg#	.
8aa	.
8ee	.
8ff#	.
8dd	.
=462	=462
8cc#L	.
8b#	.
8cc#	.
8ee	.
8dd	.
8b)	.
=463	=463
(8aL	.
8cc#	.
8dd	.
8ee	.
!LO:TX:t=cresc.	!
8ff#L	<
8ee#	.
=464	=464
8ff#L	.
8ee	.
8dd	.
8cc#)	.
(8bL	.
8a#	.
=465	=465
8bL	.
8cc#	.
8dd	.
8b)	.
(8eeL	.
8dd#	.
=466	=466
8eeL	.
8dd	.
8cc#	.
8b)	.
(8aL	.
8g#	.
=467	=467
8aL	.
8b	.
8cc#	.
8a)	.
(8ddL	.
8cc#	.
=468	=468
8ddL	.
8ee	.
8ff#	.
8gg#)	.
(8aaL	.
8gg#	.
=469	=469
8aaL	.
8gg#	.
8aa	.
8ee	.
8ff#L	.
8dd	.
=470	=470
8cc#L	.
8b#	.
8cc#	.
8ee	.
8ddL	.
8b	.
=471	=471
8aL)	.
(8aa	.
8bb	.
8ccc#	.
8ddd	f
8ccc#	.
=472	=472
8dddL	.
8eee	.
8fff#	.
8ggg#	.
8aaa)	.
(8gg#	p
=473	=473
8aaL	.
8gg#	.
8aa	.
8ee	.
8ff#	.
8dd)	.
=474	=474
(8cc#L	.
8b#	.
8cc#	.
8ee	.
8ddL	.
8b)	.
=475	=475
(8aL	.
8cc#	.
8ee	f
8aa)	.
4ccc#	.
=476	=476
2.r	.
=477	=477
2.r	.
=478	=478
2.r	.
=479	=479
2.r	.
=480	=480
2.r	.
=481	=481
2.r	.
=482	=482
4r	.
4r	.
(8c#L	f
8e	.
=483	=483
8g#L	.
8cc#	.
8ee	.
8gg#	.
8ccc#L	.
8eee)	.
=484	=484
4ggg#	.
4cccc#	.
4r	.
=485	=485
2.r	.
=486	=486
2.r	.
=487	=487
2.r	.
=488||	=488||
*M2/2	*
!LO:TX:t=L'istesso tempo	!
1r	.
=489	=489
1r	.
=490	=490
1r	.
=491	=491
2r	.
4r	.
!LO:TX:t=p  dol.	!
!LO:TX:t=L'istesso tempo	!
(4ccc#	.
=492||	=492||
*M3/4	*
*^	*
4r)	2.a	p
4r	.	.
[4eee	.	.
=493	=493	=493
4r	2.a	.
4r	.	.
[4aaa	.	.
=494	=494	=494
!LO:TX:t=cresc.	!	!
4r	[2.a	<
4r	.	.
(4eee	.	.
=495	=495	=495
4fff#	[2.a	.
4eee	.	.
4ddd	.	.
=496	=496	=496
2eee)	[2.a	.
(4ccc#	.	.
=497	=497	=497
4ddd	[2.a	.
4ccc#	.	.
4ddd	.	.
=498	=498	=498
8ccc#L	[2.a	.
8ddd	.	.
4eee)	.	.
(4eee	.	.
=499	=499	=499
4fff#	[2.a	.
4eee	.	.
4ddd)	.	.
=500	=500	=500
2eee	[2.a	.
(4ccc#	.	.
=501	=501	=501
4ddd	[2.a	.
4ccc#	.	.
8dddL	.	.
8fff#	.	.
=502	=502	=502
2ccc#)	[2.a	.
(4ccc#	.	.
=503	=503	=503
4ddd	[2.a	.
4ccc#	.	.
8dddL	.	.
8fff#)	.	.
=504	=504	=504
2aaa	[2.a	.
(4ccc#	.	[
=505	=505	=505
!LO:TX:t=dim.	!	!
4ddd	[2.a	>
4ccc#	.	.
8dddL	.	.
8fff#	.	.
=506	=506	=506
2ccc#)	2.a	p
[4ccc#	.	.
=507	=507	=507
!LO:TX:t=piu p	!	!
2ccc#	2.a	.
[4ccc#	.	.
=508	=508	=508
2.ccc#	2.a	pp
=509	=509	=509
2.r	2.r	.
*v	*v	*
==510	==510
*k[]	*
*C:	*
*M4/4	*
!LO:TX:t=Heiliger Dankgesang eines Genesenen an die Gottheit, in der lydischen Tonart.	!
!LO:TX:a:B:t=Molto Adagio	!
(4c	.
!LO:TX:t=sotto voce	!
4a	.
=511	=511
4g	.
4cc	.
4cc	.
4f	.
=512	=512
4g	.
4f)	.
2f	.
=513	=513
2f	.
2e	.
=514	=514
2d	.
2e	.
=515	=515
!LO:TX:t=cresc.	!
2f	<
2g	.
=516	=516
2f	p
(4aa	.
4dd	.
=517	=517
4ee	.
4ff	.
4gg	.
4ff	.
=518	=518
4ee	.
4g)	.
2g	<
=519	=519
2a	.
2cc	.
=520	=520
2a	.
2g	.
=521	=521
2f	[
2d	>
=522	=522
2e	p
2r	.
=523	=523
2r	.
(4g	.
4c	.
=524	=524
4d	.
4e)	.
2e	.
=525	=525
!LO:TX:t=cresc.	!
2cc	<
2b	.
=526	=526
2cc	.
2a	.
=527	=527
2b	.
2cc	.
=528	=528
2d 2dd	f
(4gg	p
4cc	.
=529	=529
4dd	.
4ee	.
4ff	.
4ee	.
=530	=530
4b	.
4cc)	.
2cc	.
=531	=531
!LO:TX:t=cresc.	!
2cc	.
2dd	<
=532	=532
2g	.
2a	.
=533	=533
2d	.
2e	>
=534	=534
2f	p
(4cc	.
4aa	.
=535	=535
4ee	.
4ff)	.
(4ff	<
4dd	.
=536	=536
4cc	.
4b)	[
2cc	p
=537	=537
!LO:TX:t=cresc.	!
2cc	<
2dd	.
=538	=538
2g	.
2a	.
=539	=539
2f	p
2g	.
=540	=540
!LO:TX:t=cresc.	!
2e	.
(4aa	.
4aa)	.
=541||	=541||
*k[f#c#]	*
*D:	*
*M3/8	*
!LO:TX:t=e = 30	!
!LO:TX:t=Andante	!
4.aa	f
=542	=542
!LO:TX:t=Neue Kraft fuhlend	!
[4.aaT	p
=543	=543
[4.aa	f
=544	=544
!LO:TX:t=p cresc.	!
4.aa	.
=545	=545
8bbL	f
8GJ	.
!LO:TX:t=ten.	!
8bbL	sf
=546	=546
16r	.
16aa	p
32r	.
32aa	.
32bb	.
32ccc#	.
32ddd	.
32eee	.
32fff#	.
32ggg	.
=547	=547
!LO:TX:t=cresc.	!
(8aaaL	<
8ggg	.
8fff#)	.
=548	=548
(16eeeLL	.
16ee	[
8.bb	>
16aa)	.
=549	=549
qqgg#t	f
qqaaT	.
4.aaT	.
=550	=550
16aaJJ	p
16ALL	.
16r	.
[16eee	.
32eee	.
(64ddd	.
64ccc#)	.
32bb	.
32aa	.
=551	=551
qqgg#t	f
qqaaT	.
4.aaT	.
=552	=552
16aaJJ	p
16f#LL	.
16r	.
[16ccc#	.
32ccc#	.
(64bb	.
64aa)	.
32gg	.
32ff#	.
=553	=553
8bbJ	f
8GJ	.
!LO:TX:t=ten.	!
8bbL	sf
=554	=554
16r	.
(qqbb	p
32aa	.
32gg#)	.
32r	.
32aa	.
(qqaa	.
32bb	.
32ccc#)	.
(qqccc#	.
32dddLLL	.
32eee)	.
(qqeee	.
32fff#LLL	.
32ggg)	.
=555	=555
!LO:TX:t=cresc.	!
(8aaaL	<
8ggg	.
8fff#	.
=556	=556
16eeeLL	.
16ee)	.
(qqee	>
8.bb	.
32aa	.
32gg#)	]
=557	=557
8ggL	p
8r	.
8r	.
=558	=558
(8dddL	.
8gg	.
8ff#t)	.
=559	=559
8eeL	.
8r	.
8r	.
=560	=560
(8dddL	.
16gg)	.
16gg	.
(16ff#tLL	.
32gg	.
32aa)	.
=561	=561
(32aa#LLL	pp
32b)	.
32r	.
32bbJJJ	.
(32ff#LLL	.
32g)	.
32r	.
32ggJJJ	.
(32dd#LLL	.
32e)	.
32r	.
32ee	.
=562	=562
(32ddLLL	.
32e)	.
32r	.
32cc#JJJ	.
(32ddLLL	.
32e)	.
32r	.
32eeJJJ	.
(32ff#LLL	.
32g)	.
32r	.
32gg	.
=563	=563
!LO:TX:t=cresc.	!
(32gg#LLL	<
32ee)	.
32r	.
32aaJJJ	.
(32bb-LLL	.
32ee)	.
32r	.
32bbJJJ	.
(32bb-LLL	.
32ee)	.
32r	.
32aa	.
=564	=564
(32bb-LLL	.
32ee)	.
32r	.
32bbJJJ	.
(32bb-LLL	.
32ee)	.
32r	.
32aaJJJ	.
(32bb-LLL	.
32ee)	.
32r	.
32bb	[
=565	=565
(8bbL	rfz
8ddd	.
8fff#	.
=566	=566
16aaaLL	.
16aa)	.
[8eeeJ	.
32eeeLLL	>
(32ddd	.
32eee	.
32fff#)	]
=567	=567
8gggL	p
8r	.
8r	.
=568	=568
(8dddL	.
16gg)	.
16gg	.
8ff#t	.
=569	=569
8eeL	.
8r	.
8r	.
=570	=570
32dddLLL	.
(32ddd	.
32eee	.
32ddd)	.
32ggLLL	.
(32gg	.
32aa	.
32gg)	.
(32ff#LLL	.
qqgg	.
qqff#	.
qqee	.
32ff#	.
32gg)	.
32aa	.
=571	=571
(32aa#LLL	pp
32b)	.
32r	.
32bbJJJ	.
(32ff#LLL	.
32g)	.
32r	.
32ggJJJ	.
(32dd#LLL	.
32e)	.
32r	.
32ee	.
=572	=572
(32ddLLL	.
32e)	.
32r	.
32cc#JJJ	.
(32ddLLL	.
32e)	.
32r	.
32eeJJJ	.
(32ff#LLL	.
32g)	.
32r	.
32gg	.
=573	=573
!LO:TX:t=cresc.	!
(32gg#LLL	<
32ee)	.
32r	.
32aaJJJ	.
(32aa#LLL	.
32ee)	.
32r	.
32bbJJJ	.
(32aa#LLL	.
32ee)	.
32r	.
32aa	.
=574	=574
(32aa#LLL	.
32ee)	.
32r	.
32bbJJJ	.
(32aa#LLL	.
32ee)	.
32r	.
32aaJJJ	.
(32aa#LLL	.
32ee)	.
32r	.
32bb	[
=575	=575
(8bbL	rfz
8ddd	.
8fff#	.
=576	=576
16aaaLL	.
16aa	.
[8eee)	.
32eeeLLL	>
(32ddd	.
32ccc#	.
32ddd)	]
=577	=577
(4ddd	p
8ff#	.
=578	=578
4.gg)	.
=579	=579
4ff#	.
(16ff#	.
32gg	.
32aa)	.
=580	=580
8bbL	.
8bb	.
(16bbLL	.
32ccc#	.
32ddd)	.
=581	=581
(8dddL	<
8aa	.
8ff#)	[
=582	=582
[8ggL	.
24gg	.
(24gg	.
24aa	.
24bbLL	.
24aa	.
24gg)	.
=583	=583
(16ggLL	.
8ff#	.
16ff#)	.
(16ff#tLL	.
32gg	.
32aa)	.
=584	=584
(32aa#LLL	.
32bb)	.
8bb	.
16bb	.
(16bbLL	.
qqaa#	.
qqbb	.
32ccc#	.
32ddd)	.
=585	=585
!LO:TX:t=cresc.	!
(16dddLL	<
8aa	.
16aa#	.
16ccc#	.
16bb)	.
=586	=586
(8bbL	.
8.dd	>
16ee)	.
=587	=587
(8eeL	p
!LO:TX:t=cresc.	!
8ff#	<
8gg	.
=588	=588
8aaL	.
8bb	[
8ccc#)	>
=589	=589
8dddL	p
!LO:TX:t=cresc.	!
(16aa	<
16ff#)	.
(16ff#	.
16gg)	.
=590	=590
(16gg#LL	.
16aa)	.
(16aa#LL	.
16bb)	[
(16bbLL	>
16ccc#)	]
=591	=591
(16ccc#LL	p
16ddd)	.
!LO:TX:t=piu p	!
8dddL	.
(8ddd	.
=592	=592
8dddL)	.
8r	.
(8ccc	pp
=593	=593
8cccL)	.
8r	.
8ccc	.
=594||	=594||
*M4/4	*
!LO:TX:a:B:t=Molto Adagio	!
4r	.
4.ccc	.
8r	.
4r	.
=595	=595
*k[]	*
*C:	*
1r	.
=596	=596
2r	.
2ff	p
=597	=597
2ff	.
2ee	.
=598	=598
2dd	.
2ee	.
=599	=599
!LO:TX:t=cresc.	!
2ff	<
2gg	.
=600	=600
2ff	p
2r	.
=601	=601
1r	.
=602	=602
2r	.
!LO:TX:t=cresc.	!
2gg	<
=603	=603
2aa	.
2ccc	.
=604	=604
2aa	.
2gg	.
=605	=605
2ff	.
2dd	>
=606	=606
2ee	p
2r	.
=607	=607
1r	.
=608	=608
2r	.
2ee	.
=609	=609
!LO:TX:t=cresc.	!
2ccc	<
2bb	.
=610	=610
2ccc	.
2aa	.
=611	=611
2bb	.
2ccc	.
=612	=612
2ddd	f
2r	[
=613	=613
1r	.
=614	=614
2r	.
2ccc	.
=615	=615
!LO:TX:t=cresc.	!
2ccc	<
2ddd	.
=616	=616
2gg	.
2aa	.
=617	=617
2dd	.
2ee	>
=618	=618
2ff	p
2r	.
=619	=619
1r	.
=620	=620
2r	.
2ccc	.
=621	=621
!LO:TX:t=cresc.	!
2ccc	<
2ddd	.
=622	=622
2gg	.
2aa	.
=623	=623
2ff	p
2gg	.
=624	=624
!LO:TX:t=cresc.	!
2ee	<
2aa	.
=625||	=625||
*k[f#c#]	*
*D:	*
*M3/8	*
!LO:TX:t=Andante	!
8dddJ	f
8dJ	.
!LO:TX:t=ten.	!
8fff#	.
=626	=626
16r	.
16eee	p
32r	.
(32aa	.
32ddd	.
32ccc#	.
32bbLLL	.
32aa	.
32bb	.
32ccc#)	.
=627	=627
8dddJ	f
8dJ	.
!LO:TX:t=ten.	!
8dddL	.
=628	=628
16r	.
16ccc#	p
32r	.
(32ff#	.
32bb	.
32aa	.
32ggLLL	.
32ff#	.
32gg	.
32aa)	.
=629	=629
8bbJ	f
8GJ	.
!LO:TX:t=ten.	!
8bb	.
=630	=630
16r	.
16aa	p
32r	.
32aa	.
32bb	.
32ccc#	.
32ddd	.
32eee	.
32fff#	.
32ggg	.
=631	=631
!LO:TX:t=cresc.	!
(8aaaL	<
8ggg	.
8fff#)	.
=632	=632
(16eeeLL	.
16ee	.
8.bb	>
16aa)	]
=633	=633
32aaLLL	f
32d	.
32ff#	.
32gg	.
32aaLLL	.
32bb	.
32ccc#	.
32ddd	.
32eeeLLL	.
32fff#	.
32ggg	.
32aaa	.
=634	=634
16aaaJJ	p
8.aTJ	.
qqg#t	.
qqaT	.
qqgg#t	.
8aaTJ	.
=635	=635
qqaa	f
32ddLLL	.
32d	.
32dd	.
32ee	.
32ff#LLL	.
32bb	.
32ccc#	.
32ddd	.
32eeeLLL	.
32fff#	.
32fff#	.
32fff#	.
=636	=636
16fff#JJ	p
8.f#tJ	.
qqeT	.
qqf#t	.
qqeeT	.
8ff#tJ	.
=637	=637
qqff#	f
8bbJ	.
8GJ	.
!LO:TX:t=ten.	!
8bbL	.
=638	=638
16r	.
48bb	p
48aa	.
48gg#	.
32r	.
32aa	.
48aa	.
48bb	.
48ccc#	.
48ccc#LLL	.
48ddd	.
48eee	.
48eeeLLL	.
48fff#	.
48ggg	.
=639	=639
!LO:TX:t=cresc.	!
(16aaaLL	<
16aa	.
16gg	.
16ggg	.
16fff#	.
16ff#	.
=640	=640
16eeeLL	.
16ee	.
[8bb)	[
(32bbLLL	>
32ee	.
32aa	.
32gg#)	]
=641	=641
8ggL	p
8r	.
8r	.
=642	=642
(8dddL	.
8gg	.
8ff#t)	.
=643	=643
8eeL	.
8r	.
8r	.
=644	=644
(8dddL	.
16gg)	.
16gg	.
(16ff#tLL	.
32gg	.
32aa)	.
=645	=645
(32aa#LLL	pp
32b)	.
32r	.
32bbJJJ	.
(32ff#LLL	.
32b)	.
32r	.
32ggJJJ	.
(32dd#LLL	.
32e)	.
32r	.
32ee	.
=646	=646
(32ddLLL	.
32e)	.
32r	.
32cc#JJJ	.
(32ddLLL	.
32e)	.
32r	.
32eeJJJ	.
(32ff#LLL	.
32g)	.
32r	.
32gg	.
=647	=647
!LO:TX:t=cresc.	!
(32gg#LLL	<
32ee)	.
32r	.
32aaJJJ	.
(32aa#LLL	.
32ee)	.
32r	.
32bbJJJ	.
(32aa#LLL	.
32ee)	.
32r	.
32aa	.
=648	=648
(32aa#LLL	.
32ee)	.
32r	.
32bbJJJ	.
(32aa#LLL	.
32ee)	.
32r	.
32aaJJJ	.
(32aa#LLL	.
32ee)	.
32r	.
32bb	[
=649	=649
(8bbL	sf
8ddd	.
8fff#	.
=650	=650
16aaaLL	.
16aa	.
[8eee)	>
32eeeLLL	.
32ddd	.
32ggg	.
32fff#)	]
=651	=651
32eeeLLL	p
(32eee	.
32fff#	.
32eee)	.
32aaLLL	.
(32aa	.
32bb	.
32aa)	.
8ggT	.
=652	=652
8ff#L	.
8r	.
8r	.
=653	=653
(48ddd#LLL	.
48eee	.
48fff#	.
48eee	.
48ddd#)	.
48eee	.
(48gg#LLL	.
48aa	.
48bb	.
48aa	.
48gg#	.
48aa)	.
8ggTJ	.
=654	=654
8ff#L	.
8r	.
8r	.
=655	=655
8r	pp
(32ff#	.
32g)	.
32ff#LLL	.
(64aa	.
64gg)	.
(32dd#LLL	.
32e)	.
32ddLLL	.
(64ff#	.
64ee)	.
=656	=656
(32ddLLL	.
32e)	.
32bLLL	.
(64dd	.
64cc#)	.
(32ddLLL	.
32e)	.
32dd#LLL	.
(64ff#	.
64ee)	.
(32ff#LLL	.
32g)	.
32ff#LLL	.
(64aa	.
64gg)	.
=657	=657
!LO:TX:t=cresc.	!
(32gg#LLL	<
32ee)	.
32gg#LLL	.
(64bb	.
64aa)	.
(32aa#LLL	.
32ee)	.
32aa#LLL	.
(64ccc#	.
64bb)	.
(32aa#LLL	.
32ee	.
32bb	.
32aa)	.
=658	=658
(32aa#LLL	.
32ee)	.
32aa#LLL	.
(64ccc#	.
64bb)	.
(32aa#LLL	.
32ee)	.
32gg#LLL	.
(64bb	.
64aa)	.
(32aa#LLL	.
32ee)	.
32aa#LLL	.
(64ccc#	.
64bb)	[
=659	=659
(32bbLLL	sf
32ee	.
32ccc#	.
32ddd)	.
(32dddLLL	.
32ff#	.
32eee	.
32fff#)	.
(32fff#LLL	.
32ff	.
32fff#	.
32aaa)	.
=660	=660
(32aaaLLL	.
32aa	.
32fff#	.
32eee)	.
[8eeeJ	.
(32eeeLLL	>
32ddd	.
32ccc#	.
64eee	]
64ddd)	.
=661	=661
(4ddd	p
8ff#	.
=662	=662
4.gg)	.
=663	=663
4ff#	.
(16ff#	.
32gg	.
32aa)	.
=664	=664
8bbL	.
8bb	.
(16bbTLL	.
qqaa#	.
qqbb	.
32ccc#	.
32ddd)	.
=665	=665
[8dddJ	<
(16dddLL	.
16aa)	[
(16aa	>
16ff#)	.
=666	=666
(16ff#LL	]
[16gg)	.
(16ggLL	.
32aa	.
32gg	.
32ff#LLL	.
32gg	.
32bb	.
32gg)	.
=667	=667
(32ggLLL	.
32ff#	.
32ee#	.
32ff#	.
32ee#LLL	.
32ff#	.
32gg	.
32ff#	.
32ee#LLL	.
32ff#	.
32gg	.
32aa)	.
=668	=668
(32aa#LLL	.
32bb	.
32ccc#	.
32bb)	.
(32bbLLL	.
32b	.
32bb	.
32aa#)	.
(32aa#LLL	.
32bb	.
32ccc#	.
32ddd)	.
=669	=669
!LO:TX:t=cresc.	!
(32dddLLL	<
32a	.
32bb	.
32aa)	.
(32aaLLL	.
32a	.
32aa#)	.
32aa#	.
(32aa#LLL	.
32b	.
32bb)	.
32bb	.
=670	=670
32bbLLL	.
(32d	.
32ee	.
32dd	.
32cc#LLL	.
32dd	.
32ff#	.
32ee	.
32dd#LLL	>
32ee	.
32gg	.
32ff#)	]
=671	=671
(32eeLLL	p
32ff#	.
32aa)	.
32gg	.
!LO:TX:t=cresc.	!
(8ff#L	<
8gg	.
=672	=672
8aaL	.
8bb	.
8ccc#)	>
=673	=673
(32dddLLL	p
32dd)	.
32r	.
32ddd	.
!LO:TX:t=cresc.	!
(32dddLLL	<
32dd)	.
32r	.
32ddd	.
(32dddLLL	.
32dd)	.
32r	.
32ddd	.
=674	=674
(32dddLLL	.
32dd)	.
32r	.
32ddd	.
(32dddLLL	.
32dd)	.
32r	.
32ddd	[
(32eeeLLL	>
32ee)	.
32r	.
32eee	]
=675	=675
(32eeeLLL	p
32ee)	.
32r	.
32fff#JJJ	.
!LO:TX:t=piu p	!
8dddL	.
(8ddd	.
=676	=676
8dddL)	.
8r	.
(8ccc	pp
=677	=677
8cccL)	.
8r	.
8ccc	.
=678||	=678||
*k[]	*
*C:	*
*M4/4	*
!LO:TX:a:B:t=Molto adagio	!
4r	<
4.ccc	>
8r	]
4r	.
=679	=679
1r	.
=680	=680
1r	.
=681	=681
8r	.
!LO:TX:t=Mit innigster Empfindung	!
(8c	.
[4a)	.
(16aLL	.
16g)	.
[8cc	.
(16ccLL	.
16dd)	.
[8cc	.
=682	=682
(8ccL	.
8f	.
8g	.
[8a)	.
(16aLL	<
16f)	.
[8g	.
(16gLL	.
16a)	.
[8g	[
=683	=683
(4g	p
2G)	.
(4dd	.
=684	=684
4cc)	.
4ccc	.
4ddd	<
4gg	.
=685	=685
4aa	p
4r	.
2r	.
=686	=686
2r	.
2cc	<
=687	=687
!LO:TX:t=cresc.	!
2cc	<
2b	.
=688	=688
2a	.
2b	.
=689	=689
2cc	.
2ff	.
=690	=690
!LO:TX:t=dim.	!
2ee	>
[2dd	.
=691	=691
!LO:TX:t=p piu p	!
(4dd	]
2a)	.
4a	.
=692	=692
2a	pp
8r	.
(8c	.
[4a)	.
=693	=693
(16aLL	.
16g)	.
[8cc	.
(16ccLL	.
16dd)	.
[8cc	.
(8ccL	.
8e	.
4f	.
=694	=694
4g	.
4f)	.
(8eL	.
!LO:TX:t=cresc.	!
4cc)	.
[8cc	.
=695	=695
(4cc	p
4.ccc)	.
(8ccc	.
4ggg)	.
=696	=696
8r	.
(8ggg	.
4fff)	.
2ccc	.
=697	=697
(2ccc	.
!LO:TX:t=cresc.	!
4bb	<
4fff)	.
=698	=698
2fff	.
2eee	.
=699	=699
2ddd	f
2eee	sf
=700	=700
2fff	sf
2ggg	sf
=701	=701
1fff	sf
=702	=702
2ggg	sf
2aaa	sf
=703	=703
1ggg	sf
=704	=704
!LO:TX:t=dim.	!
(2ggg	>
2fff	.
=705	=705
2ccc	.
2aa)	.
=706	=706
(2gg	p
!LO:TX:t=piu p	!
2ff)	.
=707	=707
2ff	.
2ee	pp
=708	=708
2r	.
2ff	<
=709	=709
2ff	p
2ee	>
=710	=710
2r	]
!LO:TX:t=cresc.	!
2ddd	<
=711	=711
2.ddd	sf
4ccc	>
=712	=712
[1ccc	p
=713	=713
[1ccc	.
=714	=714
8cccL	.
(8cc	.
[4aa)	.
(16aaLL	.
16gg)	.
[8ccc	.
(16cccLL	.
16ddd)	.
[8ccc	.
=715	=715
(8cccL	.
8ff	.
8gg	.
[8aa)	.
(16aaLL	.
16ff)	.
[8gg	.
(16ggLL	.
16aa)	.
8gg	.
=716	=716
(2fff	.
2eee	.
=717	=717
2ddd	.
[2eee)	.
=718	=718
!LO:TX:t=cresc.	!
4eee	<
(4eee	.
4ddd	.
4eee)	.
=719	=719
2fff	p
2r	.
=720	=720
!LO:TX:t=piu p	!
[4aaa	.
(8aaa	.
8aaa)	.
[4aaa	.
(8aaa	.
8aaa)	.
=721	=721
2fff	pp
2r	.
=722	=722
*k[f#c#g#]	*
*A:	*
!LO:TX:a:B:t=Alla Marcia, assai vivace	!
8.eL	f
16a	sf
[4cc#	.
(8.cc#L	>
16a)	]
8b	p
16r	.
16cc#	.
=723	=723
8ddL	.
8r	.
8cc#	.
8r	.
2r	.
=724	=724
8.aL	f
16cc#	.
[4ee	f
(8.eeL	>
16cc#)	]
8ddL	p
16r	.
16ff#	.
=725	=725
8cc#L	.
8r	.
8b	.
8r	.
4r	.
(8.ddL	.
16dd	.
=726	=726
4.dd	.
8b	.
8aL	.
8g#	.
8b)	.
16r	.
16ee	.
=727	=727
(4.ee	.
8cc#	.
8bL	.
8a	.
8aa)	.
16r	.
16ff#	.
=728	=728
(4.ee	.
8dd#J	.
!LO:TX:t=cresc.	!
8eeL	<
8dd#	.
8ee)	.
16r	.
16ff#	[
=729	=729
8bL	f
8r	.
8dd#	.
8r	.
8eeL	.
8r	.
4r	.
=730:|!|:	=730:|!|:
!LO:TX:t=dol.	!
(4.b	.
8a	.
8g#L	.
8ee	.
8dd#)	.
16r	.
16cc#	.
=731	=731
8bL	.
8r	.
8dd#	.
8r	.
8eeL	.
8r	.
4r	.
=732	=732
!LO:TX:t=cresc.	!
(4.ee	<
8dd	.
8cc#L	.
8aa	.
8gg#)	.
16r	.
16ff#	.
=733	=733
8eeL	.
8r	.
8gg#	.
8r	.
8aaL	.
8r	.
8ccc#	.
8r	[
=734	=734
4ddd	f
4r	.
2r	.
=735	=735
2r	.
4r	.
8.eeL	sf
16aa	.
=736	=736
8.eeL	f
16aa	.
([4ccc#	sf
8.ccc#L	.
16aa)	.
8bb	.
16r	.
16eee	.
=737	=737
8dddL	.
8r	.
8ccc#	.
8r	.
2r	.
=738	=738
8.aaL	.
16ccc#	.
[4eee	sf
(8.eeeL	.
16ccc#)	.
8dddL	.
16r	.
16fff#	.
=739	=739
8ccc#L	.
8r	.
8bb	.
8r	.
4r	.
(16d#LL	p
16f#	.
16a	.
16d#)	.
=740	=740
4f#	.
8.dd#L	.
16ff#	.
4bb	.
4r	.
=741	=741
4r	.
8.eeL	.
16gg#	.
4bb	.
8.dddL	.
16ddd	.
=742	=742
(4.ddd	.
8bb	.
8aaL	.
8gg#	.
8bb)	.
16r	.
16eee	.
=743	=743
(4.eee	.
8ccc#	.
8bbL	.
8aa	.
8ddd)	.
16r	.
16bb	.
=744	=744
(4.aa	.
8gg#	.
!LO:TX:t=cresc.	!
8aaL	<
8gg#	.
8aa)	.
16r	.
16bb	[
=745	=745
8eeL	f
8r	.
!LO:TX:t=attacca subito	!
8e 8b 8gg#	.
8r	.
8eL 8cc# 8aa	.
8r	.
4r	.
=746:|!	=746:|!
*k[]	*
*C:	*
!LO:TX:a:B:t=Piu Allegro	!
1r	.
=747	=747
1r	.
=748	=748
2.cc	.
[4g	.
=749	=749
8gL	.
8g	.
8f	.
8g	.
(8fL	.
8e)	.
8d	.
8e	.
=750	=750
(8dL	.
8c)	.
2B-	.
4B-	.
=751	=751
4B-	.
!LO:TX:t=espress.	!
!LO:TX:B:t=Rit.	!
(4g	.
4a	.
4b-)	.
=752	=752
!LO:TX:a:B:t=A tempo	!
(8b-L	.
4.a)	.
2r	.
=753	=753
4r	.
[2.ee	sf
=754	=754
(4.ee	.
8a)	.
8aL	.
8a	.
8a	.
8b-	.
=755	=755
(8aL	.
8g)	.
8g	.
8a	.
[2b-	.
=756	=756
!LO:TX:t=cresc.	!
(4b-	<
[4gg)	.
8ggL	.
8gg	.
8ff	.
8ee	.
=757	=757
!LO:TX:t=dim.	!
(8ddL	>
8cc#)	.
8b-	.
8a	.
!LO:TX:B:t=Rit.	!
(8gL	]
8g#	.
8a	.
8e)	.
=758	=758
!LO:TX:B:t=Accel.	!
(4g	.
!LO:TX:t=immer geschwinder	!
4f)	.
4r	.
8r	.
8dd	.
=759	=759
!LO:TX:t=cresc.	!
(4dd	<
4cc#)	.
4r	.
8r	.
8ee	.
=760	=760
(4ee	.
4dd)	.
4r	[
[4fff	ff
=761||	=761||
*M2/2	*
8fffL	.
!LO:TX:a:B:t=Presto	!
(8ddd	.
8ccc	.
8bb)	.
(8aaL	.
8gg#	.
8ff	.
8ee)	.
=762	=762
(8ddL	.
8cc	.
8b	.
8a)	.
(8g#L	.
8f	.
8e	.
8d)	.
=763	=763
(8cL	.
8B	.
8A	.
8G#)	.
(8BL	.
8d	.
8f	.
8g#)	.
=764	=764
(8aL	.
8b-	.
8b	.
8cc	.
8cc#L	.
8dd	.
8dd#	.
8ee)	.
=765	=765
(4ff	.
2g#	.
4a)	.
=766	=766
(4a	.
[2.e)	.
=767	=767
!LO:TX:a:B:t=poco Adagio	!
(4.e	>
!LO:TX:t=smorzando	!
8f)	.
(4f	.
8e)	]
8r	.
=768||	=768||
*M3/4	*
!LO:TX:t=Allegro appassionato	!
2.r	.
=769	=769
2.r	.
=770	=770
(4.a	.
8e	.
8cc)	.
8a	.
=771	=771
(2a	.
4g#)	.
=772	=772
!LO:TX:t=cresc.	!
(4.a	<
8b	.
8cc	.
8dd)	.
=773	=773
4ee	.
(4ee	.
4ee)	.
=774	=774
2ee	.
(4ee	.
=775	=775
4.gg	>
8ff)	.
(8ee	.
8dd)	]
=776	=776
(2cc	p
8eeL	.
8dd)	.
=777	=777
4dd	.
4r	.
4r	.
=778	=778
(4.aa	p
8ee	.
8ccc)	.
8aa	.
=779	=779
!LO:TX:t=cresc.	!
(2aa	<
4gg#)	.
=780	=780
(4.aa	.
8bb	.
8ccc	.
8ddd	.
=781	=781
4eee)	.
(4eee	.
4eee)	.
=782	=782
2eee	.
(4eee	.
=783	=783
4.ggg	>
8fff)	.
(8eee	.
8ddd)	]
=784	=784
(2ccc	p
8eeeL	.
8ddd)	.
=785	=785
4ddd	.
4r	.
4r	.
=786	=786
4r	.
(4dd	.
4ff)	.
=787	=787
!LO:TX:t=cresc.	!
2.aa	<
=788	=788
4r	.
(4ee	.
4gg)	.
=789	=789
2.bb	.
=790	=790
4r	.
(4aa	.
4ccc)	.
=791	=791
2eee	rfz
4eee	.
=792	=792
(4.eee	>
8bb	.
8ddd	.
8ccc)	]
=793	=793
4aa	p
4r	.
4r	.
=794	=794
4r	.
(4dd	.
4ff)	.
=795	=795
!LO:TX:t=cresc.	!
2.aa	<
=796	=796
4r	.
(4ee	.
4gg)	.
=797	=797
2.bb	.
=798	=798
4r	.
(4aa	.
4ccc)	.
=799	=799
2eee	rfz
4eee	.
=800	=800
(4.eee	>
8bb	.
8ddd	]
8ccc)	.
=801	=801
4aa	p
4r	.
4r	.
=802	=802
(4.fff	>
8ccc	.
8eee	]
8ddd)	.
=803	=803
4bb	p
4r	.
4r	.
=804	=804
(4.eee	>
8bb	.
8ddd	]
8ccc)	.
=805	=805
4aa	p
4r	.
4r	.
=806	=806
(4.fff	f
8ccc	.
8eee	.
8ddd)	.
=807	=807
8bbL	f
8r	.
8bbL	.
8r	.
8cccL	.
8r	.
=808	=808
8dddL	.
8r	.
8cccL	.
8r	.
8bbL	.
8r	.
=809	=809
8aa	.
(8ddd#L	f
8eee)	.
(8ddd#L	.
8eee)	.
8eeeJ	.
=810	=810
[2.eee	>
=811	=811
8eeeJ	p
(8ddd#L	f
8eee)	.
(8ddd#L	.
8eee)	.
8eeeJ	.
=812	=812
[2.eee	>
=813	=813
8eeeJ	p
(8ddd#L	f
8eee)	.
(8ddd#L	.
8eee)	.
8eeeJ	.
=814	=814
(4.eee	sf
8bb	.
8ddd	.
8ccc)	.
=815	=815
8aaL	.
8r	.
8aaL	.
8r	.
8bbL	.
8r	.
=816	=816
8cccL	.
8r	.
8bbL	.
8r	.
8aaL	.
8r	.
=817	=817
8ggL	.
8r	.
4r	.
4r	.
=818	=818
4r	.
8bbL	p
8r	.
8cccL	.
8r	.
=819	=819
(2ddd	.
qqff#t	.
qqggT	.
4ggT	.
=820	=820
4ff#)	.
4r	.
qqeeT	.
qqff#t	.
4ff#t	.
=821	=821
(2bb	.
qqddT	.
qqeet	.
4eet	.
=822	=822
4dd)	.
4r	.
(qqccT	.
qqddT	.
4ddT	.
=823	=823
4gg)	.
(4ccT	.
4b)	.
=824	=824
(4aT	.
4g)	.
(4b	.
=825	=825
2a)	<
4ee	[
=826	=826
2dd#)	p
(4gg	<
=827	=827
2gg	.
4gg)	[
=828	=828
2gg	>
!LO:TX:t=cresc.	!
(8ggL	<
8bb	.
=829	=829
2aa	.
4eee	.
=830	=830
2ddd#)	.
[4eee	f
=831	=831
4.eee	.
8r	.
[4eee	sf
=832	=832
4.eee	.
8r	.
[4eee	sf
=833	=833
4.eee	.
8r	.
[4eee	sf
=834	=834
4.eee	.
8r	.
(4ddd#	p
=835	=835
2.eee	.
=836	=836
4ccc	.
4aa)	.
4ff	.
=837	=837
(2.ee	.
=838	=838
4dd#	.
4bb)	.
[4eee	ff
=839	=839
4.eee	.
8r	.
[4ggg	sf
=840	=840
4.ggg	.
8r	.
[4aaa	sf
=841	=841
4.aaa	.
8r	.
[4bbb	sf
=842	=842
4.bbb	.
8r	.
(4ee	p
=843	=843
2.eee)	.
=844	=844
(4ccc	.
4aa)	.
4ff	.
=845	=845
(8cc#L	.
8dd	.
8ee	.
8ff	.
8gg#	.
8aa	.
=846	=846
8bbL	.
8ccc	.
8dddL	.
8eee	.
8fffL	.
8fff#)	.
=847	=847
!LO:TX:t=cresc.	!
2.ggg	<
=848	=848
4eee	.
4ccc	.
4bb	.
=849	=849
!LO:TX:t=dim.	!
(4aa	>
4ff	.
4ee	.
=850	=850
4dd#	.
4ee	]
4g#	p
=851	=851
!LO:TX:t=piu p	!
4a	.
4ff	.
4ee	.
=852	=852
4dd#	.
4ee	.
4g#	pp
=853	=853
4g	.
4f#	.
4dd	.
=854	=854
4f	.
4e	.
4cc	.
=855	=855
4e	.
4d	.
[4b	.
=856	=856
4b	.
4a	.
4g#)	.
=857	=857
2.r	.
=858	=858
2.r	.
=859	=859
!LO:TX:t=p	!
(4.a	.
8e	.
8cc	.
8a)	.
=860	=860
(2a	.
4g#)	.
=861	=861
!LO:TX:t=cresc.	!
(4.a	<
8b	.
8cc	.
8dd)	.
=862	=862
4ee	.
(4ee	.
4ee)	.
=863	=863
2ee	.
(4ee	.
=864	=864
4.gg	>
8ff)	]
(8ee	.
8dd)	.
=865	=865
(2cc	p
8eeL	.
8cc)	.
=866	=866
4dd	.
4r	.
4r	.
=867	=867
(4.aa	.
8ee	.
8ccc)	.
8aa	.
=868	=868
!LO:TX:t=cresc.	!
(2aa	<
4gg#)	.
=869	=869
(4.aa	.
8bb	.
8ccc	.
8ddd)	.
=870	=870
4eee	.
(4eee	.
4eee)	.
=871	=871
2eee	.
(4eee	.
=872	=872
4.ggg	>
8fff)	.
(8eeeL	]
8ddd)	.
=873	=873
(2ccc	p
8eeeL	.
8ddd)	.
=874	=874
4ddd	.
4r	.
4r	.
=875	=875
4r	.
(4dd	.
4ff)	.
=876	=876
!LO:TX:t=cresc.	!
2.aa	<
=877	=877
4r	.
(4ee	.
4gg)	.
=878	=878
2.bb	.
=879	=879
4r	.
(4aa	.
4ccc)	.
=880	=880
2eee	rfz
4eee	.
=881	=881
(4.eee	>
8bb	.
8ddd	]
8ccc)	.
=882	=882
4aa	p
4r	.
4r	.
=883	=883
4r	.
(4dd	.
4ff)	.
=884	=884
!LO:TX:t=cresc.	!
2.aa	<
=885	=885
4r	.
(4ee	.
4gg)	.
=886	=886
2.bb	.
=887	=887
4r	.
(4aa	.
4ccc)	.
=888	=888
2eee	rfz
4eee	.
=889	=889
(4.eee	.
8bb	.
8ddd	.
8ccc)	.
=890	=890
4aa	f
8aaL	sf
8r	.
8aaL	.
8r	.
=891	=891
4.bb-	f
(8ff#	.
8aa	.
8gg)	.
=892	=892
(8bL	.
8dd	.
8cc)	sf
(8f#L	.
8a	.
8g)	.
=893	=893
(8BL	.
8d	.
8c)	sf
(8f#L	.
8a	.
8g)	.
=894	=894
(8bL	.
8dd	.
8cc)	sf
(8bbL	.
8ddd	.
8ccc)	.
=895	=895
4.fff	f
(8ee	.
8gg	.
8ff)	.
=896	=896
(8a#L	.
8cc	.
8b)	sf
(8eL	.
8g	.
8f)	.
=897	=897
(8eL	.
8g	.
8f)	sf
(8a#L	.
8cc	.
8b)	.
=898	=898
(8eeL	.
8gg	.
8ff)	sf
(8eeL	.
8gg	.
8ff)	.
=899	=899
4r	.
8r	.
!LO:TX:t=dim.	!
(8e	>
8dd	.
8cc)	.
=900	=900
4r	.
8r	.
(8b	.
8gg	.
8ff)	.
=901	=901
4r	.
8r	]
(8ee	p
8ddd	.
8ccc)	.
=902	=902
4r	.
8r	.
!LO:TX:t=piu p	!
(8bb	.
8ggg	.
8fff)	.
=903	=903
(8ddd#L	pp
8eee	.
8aa	.
8ddd	.
8bb	.
8ccc	.
=904	=904
8ffL	.
8bb	.
8ee	.
8aa	.
8ff#	.
8gg	.
=905	=905
8ccL	.
8ff	.
8b	.
8ee	.
8cc#	.
8dd	.
=906	=906
8gL	.
8cc	.
8gg	.
8cc	.
8ff	.
8b)	.
=907	=907
!LO:TX:t=cresc.	!
(8ggL	<
8cc	.
8gg	.
8g	.
8aaL	.
8gg	.
=908	=908
8bbL	.
8gg	.
8ccc	.
8gg	.
8ddd	.
8gg	.
=909	=909
8eeeL	.
8gg	.
8fff	.
8gg	.
8ggg	.
8gg)	.
=910	=910
(8gggL	.
8gg	.
8ggg	.
8gg	.
8ggg	.
8gg)	.
=911	=911
(8gggL	f
8fff#)	.
8ggL 8ggg	.
8r	.
8ggL 8ggg	.
8r	.
=912	=912
4r	.
4dd 4gg	sf
4r	.
=913	=913
4r	.
4b 4gg	sf
4r	.
=914	=914
4r	.
4b 4gg	sf
4r	.
=915	=915
(4.fff	f
8ccc	.
8eee	.
8ddd)	.
=916	=916
8bbL	.
8r	.
8bbL	.
8r	.
8cccL	.
8r	.
=917	=917
8dddL	.
8r	.
8cccL	.
8r	.
8bbL	.
8r	.
=918	=918
8aaJ	.
(8ddd#L	.
8eee)	.
(8ddd#L	.
8eee)	.
8eeeJ	.
=919	=919
[2.eee	>
=920	=920
8eeeJ	p
(8ddd#L	f
8eee)	.
(8ddd#L	.
8eee)	.
8eeeJ	.
=921	=921
[2.eee	>
=922	=922
8eeeJ	p
(8ddd#L	f
8eee)	.
(8ddd#L	.
8eee)	.
8fff#J	.
=923	=923
(4.ggg	f
8ddd	.
8fff	.
8eee)	.
=924	=924
8cccL	.
8r	.
8dddL	.
8r	.
8eeeL	.
8r	.
=925	=925
8fffL	.
8r	.
8eee	.
8r	.
8dddL	.
8r	.
=926	=926
8cccL	.
8r	.
4r	.
4r	.
=927	=927
4r	.
8eeeL	p
8r	.
8fffL	.
8r	.
=928	=928
(2ggg	.
4cccT)	.
=929	=929
4bb	.
4r	.
qqaaT	.
qqbbt	.
4bbt	.
=930	=930
(2eee	.
4aaT)	.
=931	=931
4gg	.
4r	.
(qqff#t	.
qqggT	.
4ggT	.
=932	=932
4ccc)	.
(4ffT	.
4ee)	.
=933	=933
(4ddT	.
4cc)	.
(4ee	.
=934	=934
2dd	<
4aa	[
=935	=935
2gg#)	>
(4ccc	<
=936	=936
2ccc	.
4ccc)	[
=937	=937
2ccc	>
!LO:TX:t=cresc.	!
(8cccL	<
8eee	.
=938	=938
2ddd	.
4aaa	.
=939	=939
2ggg#)	.
[4aaa	f
=940	=940
4.aaa	.
8r	.
[4aaa	sf
=941	=941
4.aaa	.
8r	.
[4aaa	sf
=942	=942
4.aaa	.
8r	.
[4aaa	sf
=943	=943
4.aaa	.
8r	.
(4gg#	p
=944	=944
2.aa)	.
=945	=945
(4ff	.
4dd)	.
4b-	.
=946	=946
(2.a	.
=947	=947
4g#	.
4ee)	.
[4aa	ff
=948	=948
4.aa	.
8r	.
[4ccc	sf
=949	=949
4.ccc	.
8r	.
[4fff	sf
=950	=950
4.fff	.
8r	.
[4aaa	sf
=951	=951
4.aaa	.
8r	.
(4aa	p
=952	=952
2.aaa)	.
=953	=953
(4fff	.
4ddd)	.
4bb-	.
=954	=954
(8d#L	.
8e	.
8f#	.
8g	.
8a	.
8b-	.
=955	=955
8dd#L	.
8ee	.
8ff#	.
8gg	.
8aa	.
8bb-)	.
=956	=956
!LO:TX:t=cresc.	!
(2.ccc	<
=957	=957
4aa	.
4ff)	.
4ee	.
=958	=958
!LO:TX:t=dim.	!
(4dd	>
4b-	.
4a	.
=959	=959
4g	.
4cc	.
4e	.
=960	=960
4g	p
4f)	.
(4ddd	.
=961	=961
4bb	.
4ccc	.
4ee	.
=962	=962
4gg	.
4ff)	.
4r	.
=963	=963
2.r	.
=964	=964
2.r	.
=965	=965
2.r	.
=966	=966
2.r	.
=967	=967
2.r	.
=968	=968
2.r	.
=969	=969
2.r	.
=970	=970
4r	.
4r	.
(4ddd	pp
=971	=971
4bb#	.
4ccc	.
4ee	.
=972	=972
!LO:TX:t=sempre pp	!
4gg	.
4ff	.
4ddd	.
=973	=973
4gg	.
4fff	.
4ddd	.
=974	=974
4ggg	.
4aa)	.
([4fff	.
=975	=975
4fff	.
4eee)	.
(4ee	.
=976	=976
4gg	.
4ff)	.
4r	.
=977	=977
2.r	.
=978	=978
4r	.
4r	.
(4gg	pp
=979	=979
4ff#	.
4gg)	.
([4b	.
=980	=980
8bL	.
8dd	.
4cc)	.
!LO:TX:t=sempre pp	!
(4eee	.
=981	=981
4ddd#	.
4eee	.
4gg#	.
=982	=982
4bb	.
4aa)	.
(4aa	.
=983	=983
4.bb	.
8ee	.
8ddd)	.
8bb	.
=984	=984
(4.ccc	.
8ee	.
8fff)	.
8eee	.
=985	=985
!LO:TX:t=cresc.	!
(4ddd#	<
4eee	.
4gg#	.
=986	=986
4bb	.
4cc	.
4aa	.
=987	=987
4dd	.
4ccc	.
4bb	.
=988	=988
4ddd	.
4ee	.
4ccc)	.
=989	=989
(4ff	.
4eee	.
4ddd	.
=990	=990
!LO:TX:B:t=Accel.	!
4fff	.
4ee	.
4eee)	.
=991	=991
(4fff	.
4ee	.
4eee)	.
=992	=992
(4fff	.
4ee	.
4eee)	.
=993	=993
(4fff	.
4ee	.
4eee)	.
=994	=994
(4fff	.
4ee	.
4eee)	.
=995	=995
(8fffL	.
8ee	.
8eee)	.
8eee	.
(8eee	.
8ee)	.
=996	=996
(8fffL	.
8ee	.
8eee)	.
8eee	.
(8eee	.
8ee)	.
=997	=997
(8fffL	.
8ee	.
8eee)	.
8eee	.
(8eee	.
8ee)	.
=998	=998
(8fffL	.
8ee	.
8eee)	.
8eee	.
(8eee	.
8ee)	[
=999||	=999||
(8fffL	sf
8ee	.
8eee)	.
8eee	.
(8eee	.
8ee)	.
=1000	=1000
(8fffL	sf
8ee	.
8eee)	.
8eee	.
(8eee	.
8ee)	.
=1001	=1001
(8fffL	sf
8ee	.
8eee)	.
8aaa	.
8aaaL	.
8aaa	.
=1002	=1002
(4aaa	sf
4ggg#)	.
4eee	.
=1003	=1003
2eee	sf
(4eee	.
=1004	=1004
4.ggg	sf
8fff)	.
8eee	.
8ddd	.
=1005	=1005
(2ccc	sf
8eeeL	.
8ddd)	.
=1006	=1006
4ddd	sf
4r	.
4r	.
=1007	=1007
4r	.
(4ddd	sf
4fff)	.
=1008	=1008
2.aaa	sf
=1009	=1009
4r	.
(4ee	sf
4gg)	.
=1010	=1010
2.bb	sf
=1011	=1011
4r	.
(4aa	sf
4ccc)	.
=1012	=1012
2eee	sf
4eee	.
=1013	=1013
[2.eee	>
=1014	=1014
[2.eee	p
=1015	=1015
[2.eee	.
=1016	=1016
[2.eee	.
=1017||	=1017||
*k[f#c#g#]	*
*A:	*
(2.eee	.
=1018	=1018
4gg#	.
4aa	.
4bb	.
=1019	=1019
2ccc#	<
[4eee	.
=1020	=1020
2eee	.
4ddd#	.
=1021	=1021
4fff#	[
8eeeL)	>
(8ee	.
8gg#	]
8aa)	.
=1022	=1022
(8aa#L	.
8bb)	.
(8bbL	.
8gg#	.
8ddd	.
8bb)	.
=1023	=1023
(8bbL	.
8aa)	.
(8aaL	.
8gg#	.
8aa	.
8bb)	.
=1024	=1024
(8bbL	.
8ccc#)	.
(8ccc#L	.
8aa	.
8eee	.
8ccc#)	.
=1025	=1025
(8ccc#L	.
8bb)	.
(8bbL	.
8aa#	.
8bb	.
8ccc#)	.
=1026	=1026
2ddd	.
(4ddd	<
=1027	=1027
2ccc#	.
4bb	.
=1028	=1028
2aa	.
4bb	.
=1029	=1029
2aa	>
4gg#)	]
=1030	=1030
(2gg	<
4aa	[
=1031	=1031
2gg	>
4ff#)	]
=1032	=1032
2fff#	.
(4fff#	<
=1033	=1033
2eee	.
4fff#	.
=1034	=1034
2ccc#	.
4ddd)	.
=1035	=1035
(4ddd	>
4ccc#	.
8dddL	]
8eee)	.
=1036	=1036
2fff#	.
(4fff#	<
=1037	=1037
2eee	.
4fff#	.
=1038	=1038
2ccc#	>
8eeeL	]
8ddd)	.
=1039	=1039
4r	.
4ccc#	pp
4r	.
=1040	=1040
2.r	.
=1041	=1041
4r	.
!LO:TX:t=pizz.	!
4A 4e	.
4r	.
=1042	=1042
2.r	.
=1043	=1043
!LO:TX:t=arco	!
4r	.
(8eeL	.
8aa	.
8gg#	.
8aa	.
=1044	=1044
8bbL	.
8ccc#	.
8ddd	.
8eee	.
8fff#	.
8eee)	.
=1045	=1045
!LO:TX:t=cresc.	!
(4eee	<
4aaa	.
8ggg#L	.
8fff#)	.
=1046	=1046
!LO:TX:t=poco  a  poco	!
(8fff#L	.
8eee	.
8fff#	.
8bb	.
8ccc#	.
8ddd)	.
=1047	=1047
4ccc#	.
4ccc#	.
4r	.
=1048	=1048
4ccc#	.
4ccc#	.
4r	.
=1049	=1049
4fff#	.
4fff#	.
4r	.
=1050	=1050
4eee	.
4eee	.
4r	.
=1051	=1051
!LO:TX:t=piu cresc.	!
8aaL	.
8ccc#	.
8eee	.
8ddd	.
8ccc#	.
8bb	.
=1052	=1052
8aaL	.
8gg#	.
8aa	.
8gg	.
8ff#	.
8ee	.
=1053	=1053
!LO:TX:t=stacc.	!
8ddL	.
8ccc#	.
8ddd	.
8ccc#	.
8bb	.
8aa	.
=1054	=1054
8gg#L	.
8ddd#	.
8eee	.
8ddd	.
8ccc#	.
8bb	[
=1055	=1055
(4.aa	f
8ee	.
8ccc#	.
8aa)	.
=1056	=1056
(4.bb	sf
8gg#	.
8ddd	.
8bb)	.
=1057	=1057
(4.ccc#	sf
8aa	.
8eeeJ	.
8ccc#)	.
=1058	=1058
(4.ddd	sf
8bb	.
8fff	.
8ddd)	.
=1059	=1059
!LO:TX:t=dim.	!
4eee	>
4eee	.
4fff	.
=1060	=1060
4eee	.
4eee	.
4fff	.
=1061	=1061
4eee	p
4eee	.
4fff#	.
=1062	=1062
!LO:TX:t=piu p	!
4eee	.
4eee	.
4fff#	.
=1063	=1063
4eee	pp
4r	.
4r	.
=1064	=1064
4aaa	.
4r	.
4r	.
=1065	=1065
4a	.
4r	.
4r	.
=1066	=1066
4r	.
!LO:TX:t=cresc.	!
(4a	<
4f#)	.
=1067	=1067
4d	[
2d#t	.
=1068	=1068
4e	f
4ee	.
4r	.
=1069	=1069
4a	.
4aa	.
4r	.
=1070	=1070
4ee	.
(4eee	fp
!LO:TX:t=dol.	!
8gg#L	.
8aa)	.
=1071	=1071
(8aa#L	.
8bb)	.
(8bbL	.
8gg#	.
8ddd	.
8bb)	.
=1072	=1072
(8bbL	.
8aa)	.
(8aaL	.
8gg#	.
8aa	.
8bb)	.
=1073	=1073
(8bbL	.
8ccc#)	.
(8ccc#L	.
8aa	.
8eee	.
8ccc#)	.
=1074	=1074
(8ccc#L	.
8bb)	.
(8bbL	.
8aa#	.
8bb	.
8ccc#)	.
=1075	=1075
2ddd	.
(4ddd	<
=1076	=1076
2ccc#	.
4bb	.
=1077	=1077
2aa	.
4bb	.
=1078	=1078
2aa	>
4gg#)	]
=1079	=1079
(2gg	<
4aa	[
=1080	=1080
2gg	>
4ff#)	]
=1081	=1081
2fff#	.
(4fff#	<
=1082	=1082
2eee	.
4fff#	.
=1083	=1083
2ccc#	.
4ddd)	.
=1084	=1084
(4ddd	>
4ccc#	.
8dddL	]
8eee)	.
=1085	=1085
2fff#	<
(4fff#	.
=1086	=1086
2eee	.
4fff#	[
=1087	=1087
2ccc#	>
8eeeL	]
8ddd)	.
=1088	=1088
4r	.
4ccc#	pp
4r	.
=1089	=1089
2.r	.
=1090	=1090
4r	.
(8eL	pp
8f#	.
8e	.
8d)	.
=1091	=1091
(8dL	.
8c#	.
8d	.
8G#	.
8A	.
8B)	.
=1092	=1092
4A	.
(8eeL	.
8aa	.
8gg#	.
8aa	.
=1093	=1093
8bbL	.
8ccc#	.
8ddd	.
8eee	.
8fff#	.
8eee)	.
=1094	=1094
!LO:TX:t=cresc.	!
(4eee	<
4aaa	.
8ggg#L	.
8fff#)	.
=1095	=1095
!LO:TX:t=poco a poco	!
(8fff#L	.
8eee	.
8fff#	.
8bb	.
8ccc#	.
8ddd)	.
=1096	=1096
4ccc#	.
4ccc#	.
4r	.
=1097	=1097
4ccc#	.
4ccc#	.
4r	.
=1098	=1098
4fff#	.
4fff#	.
4r	.
=1099	=1099
4eee	.
4eee	.
4r	.
=1100	=1100
!LO:TX:t=col punto d'arco	!
!LO:TX:t=piu cresc	!
8aaL	.
8ccc#	.
8eee	.
8ddd	.
8ccc#	.
8bb	.
=1101	=1101
8aaL	.
8gg#	.
8aa	.
8gg	.
8ff#	.
8ee	.
=1102	=1102
8ddL	.
8ccc#	.
8ddd	.
8ccc#	.
8bb	.
8aa	.
=1103	=1103
8gg#L	.
8bb	.
8eee	.
8ddd	.
8ccc#	.
8bb	.
=1104	=1104
(8aaL	f
8a	.
8aa)	.
(8eeL	.
8ccc#	.
8aa)	.
=1105	=1105
(8bbL	.
8gg#	.
8bb)	.
(8gg#L	.
8ddd	.
8bb)	.
=1106	=1106
(8ccc#L	.
8aa	.
8ccc#)	.
(8aaL	.
8eee	.
8ccc#)	.
=1107	=1107
(8dddL	.
8bb	.
8fff)	.
(8bbL	.
8fff	.
8bb)	.
=1108	=1108
!LO:TX:t=dim.	!
4eee	>
4eee	.
4fff	.
=1109	=1109
4eee	.
4eee	.
4fff	.
=1110	=1110
4eee	p
4eee	.
4fff#	.
=1111	=1111
!LO:TX:t=piu p	!
4eee	.
4eee	.
4fff#	.
=1112	=1112
4eee	pp
4r	.
4r	.
=1113	=1113
4aaa	.
4r	.
4r	.
=1114	=1114
[2.a	.
=1115	=1115
4a	.
!LO:TX:t=cresc.	!
(4a	<
4f#)	.
=1116	=1116
4d	.
2d#t	.
=1117	=1117
4e	f
4ee	.
4r	.
=1118	=1118
4a	.
4aa	.
4r	.
=1119	=1119
4ee	.
4eee	.
4r	.
=1120	=1120
4r	.
4ee	.
4eee	.
=1121	=1121
4ccc#	.
4r	.
4r	.
=1122	=1122
4r	.
4ee	ff
4eee	.
=1123	=1123
4a 4aa	.
4r	.
4r	.
==	==
*-	*-
